;FLAVOR:Marlin
;TIME:6858
;Filament used: 3.65186m
;Layer height: 0.16
;MINX:80.51
;MINY:76.651
;MINZ:0.2
;MAXX:144.49
;MAXY:146.473
;MAXZ:14.12
;Generated with Creality Slicer 4.8.2-205
M140 S70
M105
M190 S70
M104 S220
M105
M109 S220
M82 ;absolute extrusion mode

G28 ;Home

G92 E0 ;Reset Extruder
G1 Z2.0 F3000 ;Move Z Axis up
G1 X10.1 Y20 Z0.28 F5000.0 ;Move to start position
G1 X10.1 Y200.0 Z0.28 F1500.0 E15 ;Draw the first line
G1 X10.4 Y200.0 Z0.28 F5000.0 ;Move to side a little
G1 X10.4 Y20 Z0.28 F1500.0 E30 ;Draw the second line
G92 E0 ;Reset Extruder
G1 Z2.0 F3000 ;Move Z Axis up

G92 E0
G92 E0
G1 F1500 E-6
;LAYER_COUNT:92
;LAYER:0
M107
G1 F300 Z0.4
G0 F6000 X84.459 Y81.438 Z0.4
;TYPE:SKIRT
G1 F300 Z0.2
G1 F1500 E0
G1 F1200 X85.219 Y80.741 E0.05145
G1 X86.031 Y80.105 E0.10291
G1 X86.982 Y79.478 E0.15974
G1 X87.49 Y79.176 E0.18922
G1 X88.401 Y78.651 E0.24168
G1 X88.936 Y78.352 E0.27225
G1 X89.856 Y77.884 E0.32375
G1 X90.808 Y77.489 E0.37517
G1 X91.788 Y77.169 E0.4266
G1 X92.791 Y76.925 E0.4781
G1 X93.809 Y76.761 E0.52955
G1 X94.996 Y76.669 E0.58894
G1 X95.306 Y76.659 E0.60442
G1 X95.735 Y76.652 E0.62582
G1 X128.869 Y76.651 E2.27889
G1 X129.755 Y76.662 E2.32309
G1 X130.785 Y76.717 E2.37455
G1 X131.599 Y76.818 E2.41547
G1 X132.612 Y77.014 E2.46695
G1 X133.606 Y77.288 E2.51839
G1 X134.576 Y77.638 E2.56984
G1 X135.516 Y78.063 E2.62131
G1 X136.208 Y78.434 E2.66048
G1 X137.811 Y79.356 E2.75274
G1 X138.685 Y79.904 E2.8042
G1 X139.513 Y80.519 E2.85566
G1 X140.291 Y81.196 E2.90711
G1 X141.014 Y81.931 E2.95855
G1 X141.679 Y82.72 E3.01003
G1 X142.28 Y83.558 E3.06148
G1 X142.814 Y84.44 E3.11292
G1 X143.278 Y85.361 E3.16437
G1 X143.67 Y86.315 E3.21583
G1 X143.987 Y87.296 E3.26726
G1 X144.226 Y88.299 E3.3187
G1 X144.387 Y89.318 E3.37017
G1 X144.474 Y90.475 E3.42806
G1 X144.484 Y90.799 E3.44423
G1 X144.49 Y91.21 E3.46473
G1 X144.488 Y105.903 E4.19777
G1 X144.478 Y106.625 E4.2338
G1 X144.467 Y107.004 E4.25271
G1 X144.447 Y107.488 E4.27688
G1 X144.372 Y110.088 E4.40665
G1 X144.372 Y112.519 E4.52793
G1 X144.442 Y115.036 E4.65355
G1 X144.454 Y115.262 E4.66484
G1 X144.466 Y115.563 E4.67987
G1 X144.484 Y116.187 E4.71102
G1 X144.49 Y116.571 E4.73018
G1 X144.488 Y131.262 E5.46311
G1 X144.478 Y131.982 E5.49904
G1 X144.423 Y133.012 E5.5505
G1 X144.289 Y134.034 E5.60192
G1 X144.077 Y135.043 E5.65336
G1 X143.786 Y136.033 E5.70484
G1 X143.42 Y136.997 E5.75629
G1 X142.981 Y137.93 E5.80773
G1 X142.47 Y138.826 E5.85919
G1 X141.891 Y139.68 E5.91066
G1 X141.248 Y140.486 E5.9621
G1 X140.545 Y141.24 E6.01354
G1 X139.843 Y141.888 E6.0612
G1 X139.016 Y142.598 E6.11558
G1 X138.474 Y143.051 E6.15082
G1 X138.224 Y143.265 E6.16724
G1 X137.415 Y143.905 E6.2187
G1 X136.559 Y144.48 E6.27015
G1 X135.661 Y144.987 E6.3216
G1 X134.727 Y145.423 E6.37302
G1 X133.761 Y145.786 E6.4245
G1 X132.771 Y146.072 E6.47592
G1 X131.761 Y146.281 E6.52737
G1 X130.738 Y146.411 E6.57882
G1 X129.982 Y146.456 E6.6166
G1 X129.656 Y146.466 E6.63288
G1 X129.248 Y146.472 E6.65323
G1 X96.131 Y146.473 E8.30545
G1 X95.218 Y146.46 E8.351
G1 X94.188 Y146.404 E8.40246
G1 X93.166 Y146.269 E8.4539
G1 X92.157 Y146.054 E8.50536
G1 X91.168 Y145.762 E8.55681
G1 X90.204 Y145.394 E8.60829
G1 X89.272 Y144.953 E8.65973
G1 X88.377 Y144.441 E8.71117
G1 X87.524 Y143.861 E8.76264
G1 X86.943 Y143.407 E8.79942
G1 X86.513 Y143.051 E8.82727
G1 X85.172 Y141.904 E8.91531
G1 X84.415 Y141.203 E8.96678
G1 X83.715 Y140.446 E9.01822
G1 X83.076 Y139.637 E9.06965
G1 X82.501 Y138.781 E9.1211
G1 X82.193 Y138.253 E9.1516
G1 X81.727 Y137.333 E9.20305
G1 X81.334 Y136.379 E9.25452
G1 X81.017 Y135.398 E9.30596
G1 X80.776 Y134.395 E9.35742
G1 X80.614 Y133.377 E9.40885
G1 X80.524 Y132.167 E9.46938
G1 X80.515 Y131.846 E9.4854
G1 X80.51 Y131.473 E9.50401
G1 X80.511 Y116.76 E10.23805
G1 X80.521 Y116.054 E10.27328
G1 X80.532 Y115.675 E10.29219
G1 X80.554 Y115.161 E10.31786
G1 X80.628 Y112.575 E10.44693
G1 X80.628 Y110.145 E10.56816
G1 X80.557 Y107.618 E10.69428
G1 X80.546 Y107.412 E10.70458
G1 X80.535 Y107.118 E10.71925
G1 X80.517 Y106.495 E10.75035
G1 X80.511 Y106.112 E10.76946
G1 X80.511 Y91.387 E11.50409
G1 X80.521 Y90.694 E11.53867
G1 X80.576 Y89.664 E11.59013
G1 X80.711 Y88.642 E11.64156
G1 X80.924 Y87.633 E11.69301
G1 X81.215 Y86.643 E11.74449
G1 X81.582 Y85.679 E11.79595
G1 X82.022 Y84.747 E11.84737
G1 X82.533 Y83.851 E11.89883
G1 X83.112 Y82.998 E11.95026
G1 X83.755 Y82.192 E12.0017
G1 X84.459 Y81.438 E12.05317
G0 F6000 X85.046 Y81.704
G1 F1200 X85.802 Y81.037 E12.10347
G1 X86.608 Y80.432 E12.15375
G1 X87.291 Y79.993 E12.19425
G1 X87.79 Y79.695 E12.22325
G1 X88.538 Y79.263 E12.26634
G1 X89.229 Y78.876 E12.30586
G1 X90.128 Y78.42 E12.35615
G1 X91.06 Y78.036 E12.40644
G1 X92.019 Y77.727 E12.45671
G1 X93 Y77.496 E12.50699
G1 X93.996 Y77.343 E12.55726
G1 X95.016 Y77.269 E12.60828
G1 X95.326 Y77.259 E12.62376
G1 X95.735 Y77.252 E12.64416
G1 X128.869 Y77.251 E14.29723
G1 X129.747 Y77.262 E14.34103
G1 X130.753 Y77.317 E14.3913
G1 X131.508 Y77.411 E14.42925
G1 X132.497 Y77.603 E14.47952
G1 X133.468 Y77.874 E14.52981
G1 X134.414 Y78.22 E14.58007
G1 X135.33 Y78.641 E14.63036
G1 X135.909 Y78.954 E14.6632
G1 X137.512 Y79.876 E14.75546
G1 X138.365 Y80.413 E14.80574
G1 X139.173 Y81.015 E14.85601
G1 X139.93 Y81.68 E14.90628
G1 X140.632 Y82.403 E14.95656
G1 X141.275 Y83.179 E15.00684
G1 X141.854 Y84.004 E15.05712
G1 X142.366 Y84.872 E15.1074
G1 X142.808 Y85.778 E15.15769
G1 X143.176 Y86.716 E15.20796
G1 X143.469 Y87.68 E15.25823
G1 X143.684 Y88.665 E15.30853
G1 X143.821 Y89.663 E15.35878
G1 X143.874 Y90.493 E15.40028
G1 X143.884 Y90.817 E15.41645
G1 X143.89 Y91.21 E15.43606
G1 X143.888 Y105.895 E16.1687
G1 X143.878 Y106.617 E16.20472
G1 X143.868 Y106.978 E16.22274
G1 X143.845 Y107.516 E16.2496
G1 X143.772 Y110.071 E16.37713
G1 X143.772 Y112.536 E16.5001
G1 X143.842 Y115.041 E16.62513
G1 X143.867 Y115.58 E16.65205
G1 X143.885 Y116.204 E16.68319
G1 X143.89 Y116.571 E16.7015
G1 X143.888 Y131.253 E17.43399
G1 X143.878 Y131.973 E17.46992
G1 X143.824 Y132.98 E17.52023
G1 X143.69 Y133.979 E17.57051
G1 X143.478 Y134.964 E17.62078
G1 X143.188 Y135.929 E17.67105
G1 X142.823 Y136.868 E17.72131
G1 X142.384 Y137.775 E17.77159
G1 X141.875 Y138.645 E17.82187
G1 X141.298 Y139.471 E17.87214
G1 X140.658 Y140.25 E17.92244
G1 X139.958 Y140.975 E17.97272
G1 X139.452 Y141.433 E18.00677
G1 X138.625 Y142.143 E18.06115
G1 X138.092 Y142.588 E18.09579
G1 X137.834 Y142.809 E18.11274
G1 X137.043 Y143.434 E18.16303
G1 X136.205 Y143.993 E18.21329
G1 X135.325 Y144.485 E18.26359
G1 X134.409 Y144.905 E18.31386
G1 X133.463 Y145.252 E18.36413
G1 X132.492 Y145.522 E18.41441
G1 X131.503 Y145.715 E18.46469
G1 X130.502 Y145.828 E18.51494
G1 X129.963 Y145.856 E18.54187
G1 X129.637 Y145.866 E18.55814
G1 X129.248 Y145.872 E18.57755
G1 X96.131 Y145.873 E20.22977
G1 X95.227 Y145.86 E20.27487
G1 X94.221 Y145.805 E20.32514
G1 X93.222 Y145.67 E20.37543
G1 X92.237 Y145.455 E20.42573
G1 X91.273 Y145.164 E20.47597
G1 X90.334 Y144.797 E20.52626
G1 X89.428 Y144.357 E20.57651
G1 X88.559 Y143.846 E20.62681
G1 X87.733 Y143.268 E20.6771
G1 X87.326 Y142.944 E20.70306
G1 X86.733 Y142.451 E20.74153
G1 X85.562 Y141.448 E20.81845
G1 X84.824 Y140.763 E20.86869
G1 X84.141 Y140.021 E20.919
G1 X83.52 Y139.228 E20.96925
G1 X82.717 Y137.962 E21.04405
G1 X82.263 Y137.062 E21.09434
G1 X81.882 Y136.129 E21.14462
G1 X81.576 Y135.169 E21.19489
G1 X81.347 Y134.188 E21.24514
G1 X81.196 Y133.191 E21.29545
G1 X81.124 Y132.15 E21.34751
G1 X81.115 Y131.829 E21.36353
G1 X81.11 Y131.473 E21.3813
G1 X81.111 Y116.768 E22.11493
G1 X81.121 Y116.062 E22.15016
G1 X81.132 Y115.701 E22.16818
G1 X81.154 Y115.183 E22.19404
G1 X81.228 Y112.592 E22.32336
G1 X81.228 Y110.128 E22.44629
G1 X81.159 Y107.65 E22.56997
G1 X81.145 Y107.381 E22.5834
G1 X81.134 Y107.101 E22.59738
G1 X81.116 Y106.478 E22.62848
G1 X81.111 Y106.112 E22.64674
G1 X81.111 Y91.396 E23.38092
G1 X81.121 Y90.703 E23.4155
G1 X81.176 Y89.696 E23.46582
G1 X81.31 Y88.698 E23.51605
G1 X81.523 Y87.713 E23.56633
G1 X81.813 Y86.748 E23.6166
G1 X82.179 Y85.809 E23.66688
G1 X82.618 Y84.902 E23.71715
G1 X83.128 Y84.032 E23.76747
G1 X83.705 Y83.206 E23.81774
G1 X84.346 Y82.428 E23.86803
G1 X85.046 Y81.704 E23.91827
G0 F6000 X85.633 Y81.977
G1 F1200 X86.383 Y81.341 E23.96733
G1 X87.599 Y80.507 E24.04089
G1 X87.921 Y80.314 E24.05962
G1 X88.839 Y79.783 E24.11253
G1 X89.522 Y79.4 E24.1516
G1 X90.399 Y78.955 E24.20066
G1 X91.31 Y78.583 E24.24976
G1 X92.248 Y78.287 E24.29883
G1 X93.207 Y78.067 E24.34792
G1 X94.18 Y77.926 E24.39697
G1 X95.035 Y77.868 E24.43972
G1 X95.345 Y77.858 E24.45519
G1 X95.735 Y77.852 E24.47465
G1 X128.869 Y77.851 E26.12772
G1 X129.738 Y77.862 E26.17107
G1 X130.72 Y77.916 E26.22014
G1 X131.417 Y78.004 E26.25519
G1 X132.382 Y78.193 E26.30425
G1 X133.329 Y78.459 E26.35332
G1 X134.251 Y78.802 E26.4024
G1 X135.142 Y79.219 E26.45148
G1 X135.61 Y79.474 E26.47807
G1 X137.213 Y80.396 E26.57033
G1 X138.045 Y80.921 E26.61941
G1 X138.832 Y81.511 E26.66848
G1 X139.568 Y82.164 E26.71757
G1 X140.248 Y82.874 E26.76662
G1 X140.869 Y83.637 E26.8157
G1 X141.426 Y84.448 E26.86478
G1 X141.915 Y85.302 E26.91388
G1 X142.333 Y86.192 E26.96294
G1 X142.677 Y87.113 E27.01199
G1 X142.946 Y88.06 E27.0611
G1 X143.136 Y89.025 E27.11017
G1 X143.248 Y90.002 E27.15923
G1 X143.274 Y90.512 E27.18471
G1 X143.284 Y90.836 E27.20088
G1 X143.29 Y91.21 E27.21954
G1 X143.288 Y105.887 E27.95178
G1 X143.278 Y106.609 E27.9878
G1 X143.268 Y106.953 E28.00497
G1 X143.246 Y107.464 E28.03049
G1 X143.172 Y110.054 E28.15976
G1 X143.172 Y112.553 E28.28443
G1 X143.242 Y115.046 E28.40886
G1 X143.267 Y115.597 E28.43638
G1 X143.285 Y116.221 E28.46752
G1 X143.29 Y116.571 E28.48499
G1 X143.288 Y131.245 E29.21707
G1 X143.278 Y131.965 E29.253
G1 X143.224 Y132.947 E29.30207
G1 X143.091 Y133.922 E29.35116
G1 X142.879 Y134.882 E29.40021
G1 X142.59 Y135.823 E29.44932
G1 X142.225 Y136.736 E29.49837
G1 X141.787 Y137.617 E29.54746
G1 X141.28 Y138.46 E29.59654
G1 X140.705 Y139.258 E29.64561
G1 X140.067 Y140.007 E29.69469
G1 X139.061 Y140.978 E29.76445
G1 X138.234 Y141.688 E29.81883
G1 X137.69 Y142.143 E29.85421
G1 X137.444 Y142.353 E29.87035
G1 X136.671 Y142.962 E29.91944
G1 X135.852 Y143.506 E29.96849
G1 X134.991 Y143.982 E30.01758
G1 X134.094 Y144.386 E30.06666
G1 X133.167 Y144.716 E30.11575
G1 X132.217 Y144.97 E30.16481
G1 X131.249 Y145.146 E30.2139
G1 X129.945 Y145.256 E30.27918
G1 X129.619 Y145.266 E30.29546
G1 X129.248 Y145.272 E30.31397
G1 X95.942 Y145.272 E31.97561
G1 X95.236 Y145.261 E32.01084
G1 X94.254 Y145.205 E32.05991
G1 X93.28 Y145.07 E32.10897
G1 X92.32 Y144.857 E32.15803
G1 X91.38 Y144.566 E32.20712
G1 X90.467 Y144.2 E32.25619
G1 X89.587 Y143.76 E32.30528
G1 X88.745 Y143.251 E32.35436
G1 X87.709 Y142.482 E32.41873
G1 X87.124 Y141.996 E32.45668
G1 X85.953 Y140.993 E32.5336
G1 X85.232 Y140.323 E32.5827
G1 X84.569 Y139.597 E32.63175
G1 X83.966 Y138.819 E32.68086
G1 X83.242 Y137.67 E32.74862
G1 X82.799 Y136.792 E32.79768
G1 X82.43 Y135.88 E32.84676
G1 X82.136 Y134.941 E32.89585
G1 X81.918 Y133.982 E32.94492
G1 X81.78 Y133.008 E32.994
G1 X81.724 Y132.133 E33.03774
G1 X81.715 Y131.812 E33.05376
G1 X81.71 Y131.473 E33.07068
G1 X81.711 Y116.777 E33.80386
G1 X81.721 Y116.071 E33.83909
G1 X81.731 Y115.726 E33.85631
G1 X81.755 Y115.174 E33.88387
G1 X81.828 Y112.61 E34.01184
G1 X81.828 Y110.111 E34.13652
G1 X81.758 Y107.604 E34.26164
G1 X81.734 Y107.083 E34.28766
G1 X81.716 Y106.46 E34.31876
G1 X81.711 Y106.112 E34.33612
G1 X81.711 Y91.404 E35.06991
G1 X81.721 Y90.711 E35.10448
G1 X81.775 Y89.729 E35.15355
G1 X81.909 Y88.755 E35.2026
G1 X82.122 Y87.794 E35.25171
G1 X82.411 Y86.854 E35.30077
G1 X82.777 Y85.941 E35.34984
G1 X83.215 Y85.06 E35.39893
G1 X83.723 Y84.218 E35.44799
G1 X84.298 Y83.42 E35.49706
G1 X84.936 Y82.671 E35.54615
G1 X85.633 Y81.977 E35.59522
G0 F6000 X85.525 Y82.921
G1 F1200 X86.218 Y82.257 E35.6431
G1 X86.963 Y81.654 E35.69092
G1 X87.908 Y81.022 E35.74764
G1 X88.23 Y80.829 E35.76637
G1 X89.28 Y80.222 E35.82688
G1 X89.815 Y79.923 E35.85745
G1 X90.671 Y79.491 E35.90529
G1 X91.559 Y79.131 E35.95309
G1 X92.475 Y78.847 E36.00094
G1 X93.412 Y78.64 E36.04881
G1 X94.362 Y78.511 E36.09664
G1 X95.054 Y78.468 E36.13124
G1 X95.364 Y78.458 E36.14671
G1 X95.735 Y78.452 E36.16522
G1 X128.869 Y78.451 E37.81828
G1 X129.729 Y78.462 E37.86119
G1 X130.687 Y78.516 E37.90906
G1 X131.326 Y78.597 E37.9412
G1 X132.267 Y78.782 E37.98904
G1 X133.189 Y79.045 E38.03688
G1 X134.086 Y79.384 E38.08472
G1 X135.311 Y79.994 E38.15299
G1 X136.914 Y80.916 E38.24525
G1 X137.724 Y81.429 E38.29308
G1 X138.489 Y82.007 E38.34092
G1 X139.204 Y82.647 E38.38879
G1 X139.862 Y83.344 E38.43661
G1 X140.46 Y84.093 E38.48443
G1 X140.994 Y84.89 E38.53229
G1 X141.459 Y85.729 E38.58015
G1 X141.853 Y86.603 E38.62798
G1 X142.173 Y87.507 E38.67582
G1 X142.416 Y88.435 E38.72368
G1 X142.581 Y89.379 E38.77149
G1 X142.675 Y90.53 E38.82911
G1 X142.685 Y90.854 E38.84528
G1 X142.69 Y91.21 E38.86304
G1 X142.688 Y105.878 E39.59483
G1 X142.678 Y106.6 E39.63086
G1 X142.669 Y106.928 E39.64723
G1 X142.643 Y107.542 E39.67789
G1 X142.572 Y110.036 E39.80236
G1 X142.572 Y112.534 E39.92699
G1 X142.644 Y115.094 E40.05476
G1 X142.657 Y115.355 E40.0678
G1 X142.667 Y115.614 E40.08073
G1 X142.685 Y116.238 E40.11187
G1 X142.69 Y116.571 E40.12849
G1 X142.688 Y131.237 E40.86018
G1 X142.678 Y131.957 E40.8961
G1 X142.625 Y132.914 E40.94392
G1 X142.492 Y133.864 E40.99178
G1 X142.28 Y134.799 E41.03961
G1 X141.991 Y135.714 E41.08748
G1 X141.628 Y136.601 E41.1353
G1 X141.191 Y137.455 E41.18316
G1 X140.685 Y138.269 E41.23097
G1 X140.113 Y139.039 E41.27883
G1 X139.478 Y139.758 E41.32669
G1 X138.67 Y140.522 E41.38216
G1 X137.71 Y141.345 E41.44525
G1 X137.263 Y141.717 E41.47426
G1 X137.053 Y141.897 E41.48806
G1 X136.3 Y142.49 E41.53588
G1 X135.499 Y143.018 E41.58374
G1 X134.657 Y143.478 E41.63161
G1 X133.78 Y143.865 E41.67944
G1 X132.874 Y144.178 E41.72726
G1 X131.944 Y144.415 E41.77514
G1 X130.999 Y144.573 E41.82294
G1 X129.927 Y144.657 E41.87658
G1 X129.601 Y144.667 E41.89286
G1 X129.248 Y144.672 E41.91047
G1 X95.952 Y144.672 E43.57161
G1 X95.246 Y144.661 E43.60684
G1 X94.288 Y144.606 E43.65471
G1 X93.339 Y144.471 E43.70254
G1 X92.404 Y144.258 E43.75038
G1 X91.49 Y143.968 E43.79822
G1 X90.603 Y143.602 E43.84609
G1 X89.75 Y143.164 E43.89393
G1 X88.937 Y142.657 E43.94173
G1 X88.091 Y142.02 E43.99456
G1 X87.514 Y141.54 E44.03201
G1 X86.343 Y140.537 E44.10893
G1 X85.641 Y139.883 E44.1568
G1 X84.997 Y139.174 E44.20458
G1 X84.413 Y138.413 E44.25244
G1 X83.766 Y137.379 E44.3133
G1 X83.336 Y136.522 E44.36113
G1 X82.978 Y135.632 E44.40899
G1 X82.696 Y134.716 E44.45681
G1 X82.492 Y133.779 E44.50465
G1 X82.366 Y132.828 E44.55251
G1 X82.324 Y132.116 E44.58809
G1 X82.315 Y131.795 E44.60411
G1 X82.31 Y131.473 E44.62018
G1 X82.311 Y116.785 E45.35297
G1 X82.321 Y116.079 E45.38819
G1 X82.33 Y115.752 E45.40451
G1 X82.357 Y115.119 E45.43612
G1 X82.428 Y112.627 E45.5605
G1 X82.428 Y110.13 E45.68508
G1 X82.356 Y107.556 E45.81354
G1 X82.334 Y107.066 E45.83801
G1 X82.316 Y106.443 E45.86911
G1 X82.311 Y106.112 E45.88563
G1 X82.311 Y91.413 E46.61896
G1 X82.321 Y90.72 E46.65354
G1 X82.375 Y89.763 E46.70136
G1 X82.508 Y88.813 E46.74922
G1 X82.72 Y87.878 E46.79705
G1 X83.01 Y86.963 E46.84494
G1 X83.374 Y86.076 E46.89277
G1 X83.811 Y85.223 E46.94059
G1 X84.318 Y84.409 E46.98843
G1 X84.89 Y83.639 E47.03629
G1 X85.525 Y82.921 E47.08411
G0 F6000 X86.114 Y83.178
G1 F1200 X86.801 Y82.546 E47.13068
G1 X87.541 Y81.976 E47.17728
G1 X88.216 Y81.537 E47.21745
G1 X88.691 Y81.254 E47.24504
G1 X89.572 Y80.746 E47.29577
G1 X90.107 Y80.447 E47.32635
G1 X90.941 Y80.027 E47.37294
G1 X91.808 Y79.68 E47.41953
G1 X92.701 Y79.408 E47.4661
G1 X93.614 Y79.214 E47.51267
G1 X94.54 Y79.098 E47.55922
G1 X95.074 Y79.068 E47.58591
G1 X95.384 Y79.058 E47.60138
G1 X95.735 Y79.052 E47.6189
G1 X128.869 Y79.051 E49.27196
G1 X129.721 Y79.062 E49.31447
G1 X130.653 Y79.116 E49.36104
G1 X131.234 Y79.19 E49.39026
G1 X132.15 Y79.371 E49.43685
G1 X133.047 Y79.63 E49.48343
G1 X133.919 Y79.965 E49.53003
G1 X135.012 Y80.514 E49.59105
G1 X136.615 Y81.436 E49.68331
G1 X137.403 Y81.936 E49.72987
G1 X138.146 Y82.501 E49.77644
