;FLAVOR:Marlin
;TIME:5652
;Filament used: 4.42063m
;Layer height: 0.16
;MINX:66.25
;MINY:85.051
;MINZ:0.2
;MAXX:158.749
;MAXY:140.584
;MAXZ:20.12
;POSTPROCESSED
;Generated with Creality Slicer 4.8.2-205
M140 S65
M105
M190 S65
M104 S240
M105
M109 S240
M82 ;absolute extrusion mode
G28 ;Home
G92 E0 ;Reset Extruder
G1 Z2.0 F3000 ;Move Z Axis up
G1 X10.1 Y20 Z0.28 F5000.0 ;Move to start position
G1 X10.1 Y200.0 Z0.28 F1500.0 E15 ;Draw the first line
G1 X10.4 Y200.0 Z0.28 F5000.0 ;Move to side a little
G1 X10.4 Y20 Z0.28 F1500.0 E30 ;Draw the second line
G92 E0 ;Reset Extruder
G1 Z2.0 F3000 ;Move Z Axis up
G92 E0
G92 E0
G1 F1500 E-6
;LAYER_COUNT:108
;LAYER:0
M107
G1 F300 Z0.4
G0 F6000 X85.017 Y88.165 Z0.4
;TYPE:SKIRT
G1 F300 Z0.2
G1 F1500 E0
G1 F1200 X85.775 Y87.538 E0.04908
G1 X86.582 Y86.975 E0.09817
G1 X87.431 Y86.479 E0.14722
G1 X88.318 Y86.053 E0.19632
G1 X89.237 Y85.701 E0.24541
G1 X90.181 Y85.425 E0.29448
G1 X91.144 Y85.227 E0.34353
G1 X92.121 Y85.107 E0.39264
G1 X92.889 Y85.069 E0.431
G1 X93.794 Y85.053 E0.47616
G1 X94.008 Y85.051 E0.48684
G1 X140.144 Y85.051 E2.78857
G1 X140.374 Y85.053 E2.80005
G1 X141.739 Y85.079 E2.86816
G1 X142.535 Y85.121 E2.90793
G1 X142.676 Y85.133 E2.91499
G1 X143.205 Y85.189 E2.94153
G1 X143.452 Y85.221 E2.95395
G1 X143.815 Y85.274 E2.97225
G1 X143.952 Y85.296 E2.97918
G1 X144.471 Y85.391 E3.0055
G1 X144.792 Y85.457 E3.02185
G1 X145.273 Y85.566 E3.04645
G1 X145.773 Y85.698 E3.07225
G1 X146.066 Y85.782 E3.08746
G1 X146.484 Y85.909 E3.10926
G1 X147.066 Y86.108 E3.13994
G1 X147.301 Y86.195 E3.15245
G1 X147.632 Y86.323 E3.17015
G1 X147.783 Y86.384 E3.17828
G1 X148.236 Y86.577 E3.20284
G1 X148.497 Y86.695 E3.21713
G1 X148.912 Y86.892 E3.24005
G1 X149.44 Y87.165 E3.26971
G1 X149.677 Y87.295 E3.28319
G1 X150.063 Y87.515 E3.30536
G1 X150.591 Y87.842 E3.33634
G1 X150.86 Y88.018 E3.35238
G1 X151.209 Y88.254 E3.3734
G1 X151.682 Y88.598 E3.40258
G1 X151.92 Y88.78 E3.41753
G1 X152.228 Y89.023 E3.4371
G1 X152.708 Y89.429 E3.46846
G1 X152.92 Y89.618 E3.48263
G1 X153.194 Y89.87 E3.5012
G1 X153.31 Y89.98 E3.50918
G1 X153.665 Y90.331 E3.53409
G1 X153.832 Y90.503 E3.54605
G1 X154.068 Y90.752 E3.56316
G1 X154.179 Y90.873 E3.57136
G1 X154.561 Y91.311 E3.60035
G1 X154.735 Y91.52 E3.61392
G1 X154.961 Y91.799 E3.63183
G1 X155.037 Y91.896 E3.63798
G1 X155.382 Y92.36 E3.66683
G1 X155.616 Y92.69 E3.68701
G1 X156.091 Y93.412 E3.73013
G1 X156.253 Y93.679 E3.74571
G1 X156.511 Y94.125 E3.77141
G1 X156.738 Y94.546 E3.79527
G1 X156.86 Y94.784 E3.80862
G1 X157.057 Y95.187 E3.831
G1 X157.12 Y95.322 E3.83843
G1 X157.322 Y95.779 E3.86336
G1 X157.433 Y96.045 E3.87774
G1 X157.61 Y96.492 E3.90172
G1 X157.797 Y97.016 E3.92948
G1 X157.893 Y97.305 E3.94467
G1 X157.999 Y97.639 E3.96216
G1 X158.168 Y98.245 E3.99354
G1 X158.247 Y98.559 E4.0097
G1 X158.333 Y98.922 E4.02831
G1 X158.356 Y99.027 E4.03367
G1 X158.467 Y99.601 E4.06284
G1 X158.517 Y99.897 E4.07781
G1 X158.582 Y100.323 E4.09931
G1 X158.651 Y100.897 E4.12816
G1 X158.677 Y101.167 E4.14169
G1 X158.712 Y101.606 E4.16366
G1 X158.738 Y102.159 E4.19128
G1 X158.745 Y102.445 E4.20555
G1 X158.749 Y102.846 E4.22556
G1 X158.748 Y102.961 E4.2313
G1 X158.731 Y103.49 E4.2577
G1 X158.715 Y103.795 E4.27294
G1 X158.686 Y104.225 E4.29444
G1 X158.621 Y104.847 E4.32564
G1 X158.587 Y105.109 E4.33882
G1 X158.526 Y105.528 E4.35995
G1 X158.502 Y105.673 E4.36728
G1 X158.427 Y106.078 E4.38783
G1 X158.369 Y106.367 E4.40254
G1 X158.282 Y106.771 E4.42315
G1 X158.119 Y107.402 E4.45567
G1 X158.031 Y107.71 E4.47165
G1 X157.927 Y108.055 E4.48963
G1 X157.885 Y108.187 E4.49654
G1 X157.711 Y108.695 E4.52333
G1 X157.622 Y108.937 E4.53619
G1 X157.48 Y109.306 E4.55592
G1 X157.42 Y109.454 E4.56388
G1 X157.223 Y109.911 E4.58871
G1 X157.124 Y110.129 E4.60066
G1 X156.956 Y110.485 E4.6203
G1 X156.874 Y110.651 E4.62953
G1 X156.646 Y111.089 E4.65417
G1 X156.521 Y111.318 E4.66718
G1 X156.311 Y111.687 E4.68837
G1 X156.25 Y111.79 E4.69434
G1 X155.996 Y112.201 E4.71844
G1 X155.827 Y112.462 E4.73396
G1 X155.587 Y112.818 E4.75538
G1 X155.225 Y113.318 E4.78617
G1 X155.017 Y113.59 E4.80326
G1 X154.799 Y113.866 E4.8208
G1 X154.15 Y114.665 E4.87216
G1 X152.556 Y116.687 E5.00061
G1 X151.095 Y118.654 E5.12285
G1 X149.647 Y120.723 E5.24885
G1 X148.765 Y122.063 E5.32888
G1 X148.648 Y122.225 E5.33885
G1 X147.433 Y124.085 E5.44969
G1 X146.754 Y125.09 E5.5102
G1 X146.228 Y125.844 E5.55607
G1 X145.631 Y126.626 E5.60515
G1 X144.973 Y127.357 E5.65422
G1 X144.258 Y128.033 E5.70331
G1 X143.49 Y128.648 E5.7524
G1 X142.675 Y129.198 E5.80145
G1 X141.818 Y129.681 E5.85053
G1 X140.925 Y130.092 E5.89957
G1 X140.001 Y130.429 E5.94864
G1 X139.052 Y130.691 E5.99776
G1 X138.086 Y130.874 E6.04681
G1 X137.334 Y130.961 E6.08458
G1 X136.141 Y131.062 E6.14431
G1 X133.625 Y131.31 E6.27044
G1 X131.146 Y131.628 E6.39513
G1 X128.681 Y132.013 E6.5196
G1 X126.29 Y132.457 E6.64093
G1 X122.743 Y133.24 E6.82215
G1 X99.017 Y138.966 E8.03983
G1 X96.937 Y139.513 E8.14713
G1 X96.624 Y139.582 E8.16312
G1 X95.321 Y139.917 E8.23024
G1 X94.738 Y140.052 E8.2601
G1 X94.236 Y140.155 E8.28566
G1 X93.8 Y140.237 E8.3078
G1 X93.483 Y140.288 E8.32381
G1 X93.009 Y140.359 E8.34773
G1 X92.59 Y140.416 E8.36882
G1 X92.236 Y140.454 E8.38659
G1 X91.795 Y140.496 E8.40869
G1 X91.515 Y140.52 E8.42271
G1 X91.348 Y140.532 E8.43106
G1 X91.025 Y140.551 E8.4472
G1 X90.581 Y140.571 E8.46938
G1 X90.111 Y140.583 E8.49283
G1 X89.789 Y140.584 E8.5089
G1 X89.21 Y140.578 E8.53779
G1 X88.632 Y140.559 E8.56664
G1 X88.168 Y140.532 E8.58983
G1 X87.699 Y140.496 E8.61329
G1 X87.353 Y140.462 E8.63064
G1 X86.921 Y140.413 E8.65233
G1 X86.449 Y140.351 E8.67608
G1 X86.119 Y140.3 E8.69274
G1 X85.63 Y140.218 E8.71748
G1 X85.251 Y140.149 E8.73669
G1 X84.954 Y140.088 E8.75182
G1 X84.468 Y139.982 E8.77664
G1 X83.855 Y139.832 E8.80812
G1 X83.288 Y139.677 E8.83745
G1 X82.871 Y139.555 E8.85912
G1 X82.562 Y139.457 E8.8753
G1 X82.147 Y139.319 E8.89712
G1 X81.823 Y139.206 E8.91424
G1 X81.374 Y139.038 E8.93815
G1 X80.833 Y138.824 E8.96718
G1 X80.289 Y138.593 E8.99666
G1 X79.861 Y138.399 E9.02011
G1 X79.427 Y138.193 E9.04408
G1 X79.12 Y138.039 E9.06121
G1 X78.66 Y137.8 E9.08707
G1 X78.131 Y137.508 E9.11722
G1 X77.683 Y137.246 E9.14311
G1 X77.323 Y137.028 E9.16411
G1 X77.051 Y136.854 E9.18022
G1 X76.618 Y136.569 E9.20608
G1 X76.147 Y136.242 E9.23469
G1 X75.683 Y135.904 E9.26333
G1 X75.296 Y135.611 E9.28754
G1 X75.017 Y135.387 E9.30539
G1 X74.58 Y135.027 E9.33364
G1 X74.1 Y134.61 E9.36536
G1 X73.659 Y134.206 E9.3952
G1 X73.238 Y133.801 E9.42435
G1 X72.909 Y133.469 E9.44766
G1 X72.704 Y133.257 E9.46238
G1 X72.57 Y133.115 E9.47212
G1 X72.301 Y132.82 E9.49204
G1 X71.968 Y132.443 E9.51713
G1 X71.61 Y132.019 E9.54482
G1 X71.301 Y131.635 E9.56941
G1 X71.056 Y131.32 E9.58932
G1 X70.794 Y130.967 E9.61125
G1 X70.482 Y130.533 E9.63791
G1 X70.122 Y130.002 E9.66992
G1 X69.886 Y129.634 E9.69173
G1 X69.709 Y129.35 E9.70843
G1 X69.586 Y129.146 E9.72031
G1 X69.431 Y128.881 E9.73563
G1 X69.175 Y128.431 E9.76146
G1 X68.889 Y127.898 E9.79163
G1 X68.664 Y127.452 E9.81656
G1 X68.492 Y127.099 E9.83615
G1 X68.328 Y126.739 E9.85588
G1 X68.048 Y126.093 E9.89101
G1 X67.857 Y125.619 E9.91651
G1 X67.702 Y125.21 E9.93833
G1 X67.546 Y124.776 E9.96134
G1 X67.414 Y124.38 E9.98216
G1 X67.24 Y123.825 E10.01118
G1 X67.083 Y123.279 E10.03952
G1 X66.964 Y122.826 E10.06289
G1 X66.859 Y122.398 E10.08488
G1 X66.796 Y122.113 E10.09944
G1 X66.691 Y121.609 E10.12512
G1 X66.6 Y121.122 E10.14984
G1 X66.561 Y120.887 E10.16172
G1 X66.478 Y120.347 E10.18898
G1 X66.399 Y119.727 E10.22016
G1 X66.347 Y119.213 E10.24594
G1 X66.307 Y118.72 E10.27061
G1 X66.288 Y118.423 E10.28546
G1 X66.264 Y117.932 E10.30999
G1 X66.25 Y117.297 E10.34168
G1 X66.252 Y116.751 E10.36892
G1 X66.258 Y116.381 E10.38738
G1 X66.274 Y115.984 E10.4072
G1 X66.301 Y115.508 E10.43099
G1 X66.337 Y115.029 E10.45495
G1 X66.362 Y114.77 E10.46793
G1 X66.41 Y114.324 E10.49031
G1 X66.459 Y113.934 E10.50992
G1 X66.517 Y113.543 E10.52964
G1 X66.609 Y112.979 E10.55815
G1 X66.721 Y112.385 E10.58831
G1 X66.825 Y111.901 E10.61301
G1 X66.915 Y111.51 E10.63302
G1 X67.011 Y111.138 E10.65219
G1 X67.138 Y110.673 E10.67624
G1 X67.266 Y110.234 E10.69905
G1 X67.36 Y109.935 E10.71469
G1 X67.517 Y109.458 E10.73974
G1 X67.723 Y108.879 E10.7704
G1 X67.934 Y108.333 E10.79961
G1 X68.167 Y107.773 E10.82987
G1 X68.399 Y107.252 E10.85832
G1 X68.577 Y106.87 E10.87935
G1 X68.739 Y106.545 E10.89746
G1 X69.014 Y106.013 E10.92734
G1 X69.306 Y105.482 E10.95758
G1 X69.547 Y105.068 E10.98147
G1 X69.771 Y104.696 E11.00314
G1 X69.934 Y104.439 E11.01832
G1 X70.191 Y104.044 E11.04183
G1 X70.55 Y103.522 E11.07344
G1 X70.938 Y102.989 E11.10633
G1 X71.317 Y102.496 E11.13735
G1 X71.653 Y102.081 E11.16399
G1 X71.876 Y101.813 E11.18139
G1 X72.165 Y101.483 E11.20327
G1 X72.433 Y101.186 E11.22323
G1 X72.641 Y100.961 E11.23852
G1 X72.791 Y100.803 E11.24939
G1 X73.034 Y100.554 E11.26675
G1 X73.388 Y100.202 E11.29165
G1 X73.71 Y99.892 E11.31395
G1 X75.588 Y98.149 E11.44178
G1 X77.384 Y96.385 E11.56737
G1 X79.098 Y94.604 E11.69069
G1 X80.804 Y92.729 E11.81716
G1 X81.739 Y91.652 E11.88832
G1 X82.178 Y91.162 E11.92114
G1 X82.91 Y90.362 E11.97524
G1 X83.875 Y89.315 E12.04628
G1 X84.313 Y88.852 E12.07807
G1 X85.017 Y88.165 E12.12715
G0 F6000 X85.436 Y88.595
G1 F1200 X86.177 Y87.986 E12.175
G1 X86.966 Y87.441 E12.22284
G1 X87.798 Y86.964 E12.27069
G1 X88.666 Y86.557 E12.31852
G1 X89.566 Y86.225 E12.36638
G1 X90.49 Y85.968 E12.41422
G1 X91.432 Y85.789 E12.46206
G1 X92.386 Y85.689 E12.50992
G1 X92.9 Y85.669 E12.53558
G1 X94.008 Y85.651 E12.59087
G1 X140.144 Y85.651 E14.8926
G1 X140.363 Y85.653 E14.90353
G1 X141.728 Y85.679 E14.97164
G1 X142.484 Y85.718 E15.00941
G1 X142.625 Y85.73 E15.01647
G1 X143.128 Y85.784 E15.04171
G1 X143.375 Y85.816 E15.05413
G1 X143.72 Y85.866 E15.07152
G1 X143.857 Y85.888 E15.07845
G1 X144.35 Y85.979 E15.10346
G1 X144.671 Y86.045 E15.11981
G1 X145.132 Y86.149 E15.14338
G1 X145.607 Y86.274 E15.16789
G1 X145.9 Y86.358 E15.1831
G1 X146.304 Y86.481 E15.20417
G1 X146.858 Y86.67 E15.23337
G1 X147.093 Y86.757 E15.24587
G1 X147.407 Y86.879 E15.26268
G1 X147.558 Y86.94 E15.2708
G1 X147.989 Y87.124 E15.29418
G1 X148.25 Y87.242 E15.30847
G1 X148.65 Y87.432 E15.33057
G1 X149.152 Y87.691 E15.35875
G1 X149.389 Y87.821 E15.37223
G1 X149.761 Y88.034 E15.39362
G1 X150.262 Y88.344 E15.42301
G1 X150.531 Y88.52 E15.43905
G1 X150.868 Y88.748 E15.45935
G1 X151.318 Y89.075 E15.4871
G1 X151.556 Y89.257 E15.50205
G1 X151.853 Y89.491 E15.52091
G1 X152.309 Y89.877 E15.55072
G1 X152.521 Y90.066 E15.56489
G1 X152.781 Y90.305 E15.58251
G1 X152.897 Y90.415 E15.59048
G1 X153.235 Y90.749 E15.61419
G1 X153.402 Y90.921 E15.62615
G1 X153.736 Y91.279 E15.65058
G1 X154.1 Y91.695 E15.67816
G1 X154.274 Y91.904 E15.69172
G1 X154.564 Y92.266 E15.71486
G1 X154.893 Y92.707 E15.74231
G1 X155.127 Y93.037 E15.7625
G1 X155.578 Y93.724 E15.8035
G1 X155.74 Y93.991 E15.81908
G1 X155.926 Y94.309 E15.83746
G1 X155.988 Y94.419 E15.84376
G1 X156.204 Y94.82 E15.86648
G1 X156.326 Y95.058 E15.87982
G1 X156.513 Y95.441 E15.90109
G1 X156.576 Y95.576 E15.90852
G1 X156.768 Y96.01 E15.9322
G1 X156.879 Y96.276 E15.94658
G1 X157.002 Y96.582 E15.96303
G1 X157.05 Y96.707 E15.96971
G1 X157.228 Y97.205 E15.99609
G1 X157.324 Y97.494 E16.01129
G1 X157.425 Y97.815 E16.02808
G1 X157.586 Y98.391 E16.05791
G1 X157.665 Y98.705 E16.07407
G1 X157.747 Y99.05 E16.09176
G1 X157.77 Y99.155 E16.09712
G1 X157.875 Y99.701 E16.12486
G1 X157.925 Y99.997 E16.13984
G1 X157.988 Y100.409 E16.16063
G1 X158.054 Y100.955 E16.18807
G1 X158.08 Y101.225 E16.2016
G1 X158.114 Y101.648 E16.22277
G1 X158.139 Y102.174 E16.24905
G1 X158.146 Y102.46 E16.26332
G1 X158.149 Y102.841 E16.28233
G1 X158.148 Y102.956 E16.28807
G1 X158.132 Y103.458 E16.31312
G1 X158.116 Y103.763 E16.32836
G1 X158.088 Y104.179 E16.34916
G1 X158.026 Y104.77 E16.37881
G1 X157.992 Y105.032 E16.39199
G1 X157.934 Y105.43 E16.41206
G1 X157.91 Y105.575 E16.41939
G1 X157.839 Y105.96 E16.43892
G1 X157.781 Y106.249 E16.45363
G1 X157.697 Y106.637 E16.47343
G1 X157.543 Y107.237 E16.50434
G1 X157.455 Y107.545 E16.52032
G1 X157.356 Y107.873 E16.53741
G1 X157.314 Y108.005 E16.54432
G1 X157.148 Y108.487 E16.56975
G1 X157.059 Y108.729 E16.58262
G1 X156.924 Y109.081 E16.60143
G1 X156.864 Y109.229 E16.60939
G1 X156.677 Y109.663 E16.63297
G1 X156.578 Y109.881 E16.64492
G1 X156.418 Y110.219 E16.66357
G1 X156.336 Y110.385 E16.67281
G1 X156.119 Y110.802 E16.69626
G1 X155.994 Y111.031 E16.70928
G1 X155.795 Y111.381 E16.72937
G1 X155.734 Y111.484 E16.73534
G1 X155.492 Y111.874 E16.75824
G1 X155.323 Y112.135 E16.77375
G1 X155.093 Y112.478 E16.79435
G1 X154.748 Y112.954 E16.82368
G1 X154.54 Y113.226 E16.84077
G1 X154.333 Y113.488 E16.85742
G1 X153.702 Y114.265 E16.90736
G1 X152.092 Y116.307 E17.03709
G1 X150.581 Y118.342 E17.16355
G1 X149.158 Y120.374 E17.28731
G1 X148.264 Y121.733 E17.36847
G1 X148.133 Y121.915 E17.37965
G1 X146.827 Y123.912 E17.4987
G1 X146.257 Y124.754 E17.54943
G1 X145.736 Y125.5 E17.59482
G1 X145.154 Y126.262 E17.64266
G1 X144.51 Y126.973 E17.69052
G1 X143.81 Y127.627 E17.73831
G1 X143.057 Y128.221 E17.78616
G1 X142.257 Y128.75 E17.83401
G1 X141.416 Y129.211 E17.88186
G1 X140.54 Y129.6 E17.92968
G1 X139.634 Y129.915 E17.97753
G1 X138.705 Y130.153 E18.02538
G1 X137.284 Y130.363 E18.09704
G1 X136.099 Y130.463 E18.15637
G1 X133.555 Y130.714 E18.28391
G1 X131.057 Y131.034 E18.40955
G1 X128.578 Y131.422 E18.53473
G1 X126.168 Y131.87 E18.65703
G1 X122.629 Y132.651 E18.83784
G1 X98.88 Y138.382 E20.05669
G1 X96.785 Y138.933 E20.16477
G1 X96.468 Y139.002 E20.18095
G1 X95.171 Y139.336 E20.24777
G1 X94.617 Y139.464 E20.27614
G1 X94.115 Y139.567 E20.30171
G1 X93.695 Y139.646 E20.32303
G1 X93.395 Y139.695 E20.33819
G1 X92.921 Y139.766 E20.3621
G1 X92.515 Y139.82 E20.38254
G1 X92.179 Y139.857 E20.3994
G1 X91.738 Y139.899 E20.4215
G1 X91.305 Y139.933 E20.44317
G1 X90.998 Y139.951 E20.45851
G1 X90.554 Y139.971 E20.48069
G1 X90.101 Y139.983 E20.5033
G1 X89.795 Y139.984 E20.51856
G1 X89.216 Y139.978 E20.54745
G1 X88.667 Y139.96 E20.57486
G1 X88.203 Y139.933 E20.59804
G1 X87.75 Y139.898 E20.62071
G1 X87.421 Y139.866 E20.6372
G1 X86.989 Y139.817 E20.65889
G1 X86.532 Y139.757 E20.68189
G1 X86.218 Y139.709 E20.69774
G1 X85.729 Y139.627 E20.72247
G1 X85.364 Y139.56 E20.74099
G1 X85.081 Y139.502 E20.7554
G1 X84.595 Y139.396 E20.78022
G1 X84.014 Y139.253 E20.81007
G1 X83.447 Y139.098 E20.83939
G1 X83.045 Y138.981 E20.86028
G1 X82.751 Y138.887 E20.87568
G1 X82.336 Y138.749 E20.8975
G1 X82.029 Y138.642 E20.91372
G1 X81.595 Y138.48 E20.93683
G1 X81.054 Y138.266 E20.96586
G1 X80.536 Y138.046 E20.99393
G1 X80.108 Y137.852 E21.01738
G1 X79.845 Y137.729 E21.03186
G1 X79.688 Y137.653 E21.04057
G1 X79.397 Y137.507 E21.05681
G1 X78.937 Y137.268 E21.08267
G1 X78.433 Y136.99 E21.11139
G1 X77.985 Y136.728 E21.13728
G1 X77.639 Y136.518 E21.15747
G1 X77.381 Y136.353 E21.17275
G1 X76.948 Y136.068 E21.19861
G1 X76.5 Y135.757 E21.22582
G1 X76.036 Y135.419 E21.25446
G1 X75.669 Y135.141 E21.27743
G1 X75.399 Y134.924 E21.29471
G1 X74.962 Y134.564 E21.32296
G1 X74.506 Y134.168 E21.35309
G1 X74.065 Y133.764 E21.38293
G1 X73.664 Y133.379 E21.41066
G1 X73.335 Y133.047 E21.43398
G1 X73.006 Y132.703 E21.45773
G1 X72.751 Y132.423 E21.47662
G1 X72.418 Y132.046 E21.50172
G1 X72.078 Y131.643 E21.52802
G1 X71.769 Y131.259 E21.55261
G1 X71.536 Y130.959 E21.57157
G1 X71.281 Y130.617 E21.59285
G1 X70.969 Y130.183 E21.61952
G1 X70.627 Y129.678 E21.64994
G1 X70.391 Y129.31 E21.67175
G1 X70.223 Y129.04 E21.68762
G1 X70.1 Y128.836 E21.6995
G1 X69.952 Y128.584 E21.71408
G1 X69.696 Y128.134 E21.73991
G1 X69.425 Y127.628 E21.76855
G1 X69.2 Y127.182 E21.79347
G1 X69.034 Y126.841 E21.81239
G1 X68.878 Y126.499 E21.83115
G1 X68.678 Y126.041 E21.85608
G1 X68.557 Y125.754 E21.87162
G1 X68.418 Y125.406 E21.89032
G1 X68.263 Y124.997 E21.91214
G1 X68.112 Y124.577 E21.9344
G1 X67.987 Y124.2 E21.95422
G1 X67.813 Y123.645 E21.98324
G1 X67.663 Y123.127 E22.01014
G1 X67.544 Y122.674 E22.03351
G1 X67.444 Y122.261 E22.05471
G1 X67.384 Y121.99 E22.06856
G1 X67.279 Y121.486 E22.09424
G1 X67.191 Y121.019 E22.11795
