;FLAVOR:Marlin
;TIME:6545
;Filament used: 3.39464m
;Layer height: 0.16
;MINX:81.9
;MINY:90.693
;MINZ:0.2
;MAXX:138.301
;MAXY:134.789
;MAXZ:55.04
;POSTPROCESSED
;Generated with Creality Slicer 4.8.2-205
M140 S65
M105
M190 S65
M104 S240
M105
M109 S240
M82 ;absolute extrusion mode
G28 ;Home
G92 E0 ;Reset Extruder
G1 Z2.0 F3000 ;Move Z Axis up
G1 X10.1 Y20 Z0.28 F5000.0 ;Move to start position
G1 X10.1 Y200.0 Z0.28 F1500.0 E15 ;Draw the first line
G1 X10.4 Y200.0 Z0.28 F5000.0 ;Move to side a little
G1 X10.4 Y20 Z0.28 F1500.0 E30 ;Draw the second line
G92 E0 ;Reset Extruder
G1 Z2.0 F3000 ;Move Z Axis up
G92 E0
G92 E0
G1 F1500 E-6
;LAYER_COUNT:361
;LAYER:0
M107
G1 F300 Z0.4
G0 F6000 X85.814 Y93.9 Z0.4
;TYPE:SKIRT
G1 F300 Z0.2
G1 F1500 E0
G1 F1200 X86.564 Y93.264 E0.04906
G1 X87.363 Y92.69 E0.09814
G1 X88.206 Y92.184 E0.14719
G1 X89.088 Y91.748 E0.19628
G1 X90.002 Y91.385 E0.24534
G1 X90.943 Y91.097 E0.29444
G1 X91.904 Y90.887 E0.34352
G1 X92.879 Y90.755 E0.3926
G1 X93.67 Y90.707 E0.43214
G1 X93.991 Y90.698 E0.44816
G1 X94.33 Y90.693 E0.46507
G1 X95.482 Y90.694 E0.52255
G1 X96.188 Y90.705 E0.55778
G1 X96.834 Y90.733 E0.59003
G1 X97.154 Y90.755 E0.60604
G1 X99.705 Y90.901 E0.73352
G1 X102.197 Y90.972 E0.85789
G1 X104.695 Y90.972 E0.98252
G1 X107.158 Y90.903 E1.10545
G1 X109.695 Y90.76 E1.23222
G1 X110.296 Y90.723 E1.26226
G1 X110.67 Y90.707 E1.28093
G1 X110.99 Y90.698 E1.29691
G1 X111.33 Y90.693 E1.31387
G1 X125.667 Y90.694 E2.02915
G1 X126.365 Y90.704 E2.06397
G1 X127.348 Y90.758 E2.11309
G1 X128.322 Y90.892 E2.16214
G1 X129.283 Y91.104 E2.21124
G1 X130.223 Y91.394 E2.26032
G1 X131.136 Y91.759 E2.30937
G1 X132.017 Y92.197 E2.35846
G1 X132.859 Y92.705 E2.40752
G1 X133.657 Y93.28 E2.45659
G1 X134.406 Y93.918 E2.50567
G1 X135.101 Y94.615 E2.55478
G1 X135.736 Y95.365 E2.60381
G1 X136.309 Y96.165 E2.6529
G1 X136.815 Y97.009 E2.702
G1 X137.25 Y97.891 E2.75106
G1 X137.613 Y98.805 E2.80013
G1 X137.9 Y99.746 E2.84921
G1 X138.109 Y100.707 E2.89827
G1 X138.24 Y101.682 E2.94735
G1 X138.287 Y102.462 E2.98634
G1 X138.296 Y102.781 E3.00226
G1 X138.301 Y103.123 E3.01932
G1 X138.299 Y114.72 E3.5979
G1 X138.289 Y115.42 E3.63283
G1 X138.235 Y116.402 E3.68189
G1 X138.101 Y117.377 E3.73099
G1 X137.889 Y118.337 E3.78004
G1 X137.599 Y119.277 E3.82912
G1 X137.234 Y120.191 E3.87822
G1 X136.796 Y121.071 E3.92726
G1 X136.288 Y121.914 E3.97636
G1 X135.719 Y122.704 E4.02494
G1 X135.444 Y123.049 E4.04695
G1 X135.067 Y123.503 E4.07639
G1 X129.463 Y130.129 E4.50934
G1 X129.018 Y130.64 E4.54315
G1 X128.342 Y131.355 E4.59224
G1 X127.611 Y132.013 E4.6413
G1 X126.828 Y132.609 E4.6904
G1 X126 Y133.14 E4.73947
G1 X125.131 Y133.601 E4.78855
G1 X124.228 Y133.991 E4.83762
G1 X123.296 Y134.306 E4.8867
G1 X122.342 Y134.544 E4.93576
G1 X121.371 Y134.703 E4.98485
G1 X120.391 Y134.784 E5.0339
G1 X119.546 Y134.789 E5.07606
G1 X119.302 Y134.782 E5.08824
G1 X118.321 Y134.714 E5.1373
G1 X117.591 Y134.611 E5.17408
G1 X117.168 Y134.538 E5.1955
G1 X116.725 Y134.453 E5.218
G1 X115.906 Y134.28 E5.25976
G1 X114.794 Y133.989 E5.31711
G1 X114.42 Y133.872 E5.33666
G1 X113.936 Y133.711 E5.36211
G1 X113.115 Y133.42 E5.40556
G1 X112.208 Y133.055 E5.45434
G1 X112.017 Y132.969 E5.46479
G1 X111.719 Y132.83 E5.4812
G1 X111.388 Y132.67 E5.49954
G1 X111.144 Y132.549 E5.51313
G1 X109.75 Y131.836 E5.59124
G1 X108.605 Y131.232 E5.65583
G1 X106.352 Y130.122 E5.78113
G1 X104.123 Y129.102 E5.90343
G1 X101.817 Y128.123 E6.02841
G1 X99.464 Y127.201 E6.15449
G1 X97.183 Y126.385 E6.27536
G1 X94.814 Y125.61 E6.39971
G1 X91.876 Y124.748 E6.55247
G1 X90.791 Y124.449 E6.60862
G1 X89.854 Y124.149 E6.6577
G1 X88.945 Y123.774 E6.70676
G1 X88.069 Y123.326 E6.75585
G1 X87.232 Y122.809 E6.80493
G1 X86.441 Y122.225 E6.85398
G1 X85.699 Y121.579 E6.90306
G1 X85.012 Y120.875 E6.95214
G1 X84.385 Y120.117 E7.00122
G1 X83.821 Y119.311 E7.05029
G1 X83.324 Y118.462 E7.09937
G1 X82.899 Y117.575 E7.14844
G1 X82.546 Y116.657 E7.19751
G1 X82.27 Y115.713 E7.24658
G1 X82.071 Y114.75 E7.29564
G1 X81.95 Y113.773 E7.34476
G1 X81.916 Y113.161 E7.37534
G1 X81.906 Y112.839 E7.39141
G1 X81.9 Y112.463 E7.41017
G1 X81.901 Y103.303 E7.86716
G1 X81.91 Y102.638 E7.90034
G1 X81.963 Y101.656 E7.94941
G1 X82.096 Y100.681 E7.9985
G1 X82.308 Y99.721 E8.04755
G1 X82.597 Y98.78 E8.09666
G1 X82.961 Y97.867 E8.1457
G1 X83.399 Y96.986 E8.19478
G1 X83.906 Y96.143 E8.24386
G1 X84.48 Y95.344 E8.29294
G1 X85.118 Y94.595 E8.34203
G1 X85.814 Y93.9 E8.3911
G0 F6000 X86.399 Y94.18
G1 F1200 X87.144 Y93.576 E8.43895
G1 X87.936 Y93.036 E8.48677
G1 X88.771 Y92.564 E8.53463
G1 X89.642 Y92.163 E8.58246
G1 X90.544 Y91.837 E8.63031
G1 X91.469 Y91.586 E8.67813
G1 X92.413 Y91.413 E8.72601
G1 X93.687 Y91.307 E8.78979
G1 X94.008 Y91.298 E8.80581
G1 X94.33 Y91.293 E8.82188
G1 X95.472 Y91.294 E8.87885
G1 X96.178 Y91.305 E8.91408
G1 X96.792 Y91.331 E8.94474
G1 X97.157 Y91.356 E8.96299
G1 X99.689 Y91.501 E9.08952
G1 X102.18 Y91.572 E9.21385
G1 X104.676 Y91.572 E9.33838
G1 X107.208 Y91.501 E9.46475
G1 X109.731 Y91.359 E9.59082
G1 X110.331 Y91.322 E9.62081
G1 X110.687 Y91.307 E9.63859
G1 X111.007 Y91.298 E9.65456
G1 X111.33 Y91.293 E9.67067
G1 X125.659 Y91.294 E10.38555
G1 X126.357 Y91.304 E10.42038
G1 X127.314 Y91.358 E10.4682
G1 X128.264 Y91.491 E10.51606
G1 X129.199 Y91.703 E10.56389
G1 X130.113 Y91.992 E10.61171
G1 X131 Y92.357 E10.65957
G1 X131.854 Y92.793 E10.7074
G1 X132.668 Y93.3 E10.75525
G1 X133.438 Y93.873 E10.80313
G1 X134.156 Y94.507 E10.85092
G1 X134.82 Y95.2 E10.8988
G1 X135.423 Y95.945 E10.94662
G1 X135.963 Y96.738 E10.99448
G1 X136.434 Y97.573 E11.04231
G1 X136.834 Y98.445 E11.09018
G1 X137.16 Y99.346 E11.13798
G1 X137.41 Y100.272 E11.18583
G1 X137.582 Y101.216 E11.2337
G1 X137.687 Y102.479 E11.29693
G1 X137.696 Y102.798 E11.31285
G1 X137.701 Y103.123 E11.32907
G1 X137.699 Y114.711 E11.9072
G1 X137.689 Y115.411 E11.94212
G1 X137.635 Y116.369 E11.98999
G1 X137.502 Y117.318 E12.0378
G1 X137.29 Y118.254 E12.08568
G1 X137.001 Y119.168 E12.13351
G1 X136.637 Y120.055 E12.18134
G1 X136.2 Y120.909 E12.2292
G1 X135.693 Y121.723 E12.27705
G1 X135.246 Y122.335 E12.31486
G1 X134.981 Y122.666 E12.33601
G1 X134.609 Y123.116 E12.36514
G1 X129.12 Y129.608 E12.78928
G1 X128.565 Y130.246 E12.83147
G1 X127.906 Y130.943 E12.87932
G1 X127.191 Y131.582 E12.92716
G1 X126.425 Y132.159 E12.97501
G1 X125.614 Y132.67 E13.02283
G1 X124.763 Y133.112 E13.07067
G1 X123.878 Y133.482 E13.11853
G1 X122.965 Y133.776 E13.16638
G1 X122.031 Y133.993 E13.21422
G1 X121.083 Y134.132 E13.26202
G1 X120.125 Y134.192 E13.30991
G1 X119.563 Y134.189 E13.33795
G1 X119.319 Y134.182 E13.35013
G1 X118.363 Y134.115 E13.39794
G1 X117.693 Y134.019 E13.43171
G1 X117.27 Y133.946 E13.45312
G1 X116.849 Y133.866 E13.4745
G1 X116.03 Y133.693 E13.51626
G1 X114.973 Y133.416 E13.57078
G1 X114.599 Y133.299 E13.59033
G1 X114.332 Y133.212 E13.60434
G1 X113.971 Y133.088 E13.62338
G1 X113.317 Y132.855 E13.65802
G1 X112.455 Y132.508 E13.70438
G1 X112.264 Y132.422 E13.71483
G1 X111.98 Y132.29 E13.73045
G1 X111.649 Y132.13 E13.7488
G1 X111.417 Y132.014 E13.76174
G1 X109.887 Y131.231 E13.84748
G1 X108.868 Y130.693 E13.90497
G1 X106.626 Y129.588 E14.02967
G1 X104.353 Y128.548 E14.15438
G1 X102.017 Y127.556 E14.281
G1 X99.715 Y126.655 E14.40433
G1 X97.36 Y125.812 E14.52912
G1 X94.97 Y125.03 E14.65458
G1 X92.073 Y124.181 E14.80519
G1 X90.951 Y123.871 E14.86326
G1 X90.038 Y123.577 E14.91112
G1 X89.152 Y123.209 E14.95898
G1 X88.301 Y122.768 E15.0068
G1 X87.489 Y122.257 E15.05466
G1 X86.722 Y121.681 E15.10252
G1 X86.007 Y121.043 E15.15033
G1 X85.346 Y120.347 E15.19821
G1 X84.746 Y119.599 E15.24605
G1 X84.211 Y118.804 E15.29386
G1 X83.743 Y117.967 E15.3417
G1 X83.347 Y117.093 E15.38958
G1 X83.026 Y116.19 E15.43739
G1 X82.78 Y115.263 E15.48524
G1 X82.613 Y114.319 E15.53306
G1 X82.516 Y113.142 E15.59198
G1 X82.506 Y112.82 E15.60806
G1 X82.5 Y112.463 E15.62587
G1 X82.501 Y103.311 E16.08247
G1 X82.51 Y102.646 E16.11565
G1 X82.563 Y101.689 E16.16346
G1 X82.696 Y100.739 E16.21132
G1 X82.907 Y99.804 E16.25914
G1 X83.195 Y98.889 E16.307
G1 X83.559 Y98.002 E16.35483
G1 X83.995 Y97.148 E16.40267
G1 X84.501 Y96.333 E16.45053
G1 X85.073 Y95.563 E16.49839
G1 X85.707 Y94.844 E16.54621
G1 X86.399 Y94.18 E16.59406
G0 F6000 X86.296 Y95.1
G1 F1200 X86.983 Y94.469 E16.64059
G1 X87.722 Y93.898 E16.68719
G1 X88.507 Y93.393 E16.73376
G1 X89.332 Y92.956 E16.78033
G1 X90.192 Y92.592 E16.82692
G1 X91.08 Y92.303 E16.87351
G1 X91.989 Y92.091 E16.92008
G1 X92.913 Y91.957 E16.96666
G1 X93.704 Y91.906 E17.00621
G1 X94.025 Y91.897 E17.02223
G1 X94.33 Y91.893 E17.03744
G1 X95.293 Y91.893 E17.08549
G1 X96.169 Y91.905 E17.1292
G1 X96.751 Y91.93 E17.15826
G1 X97.083 Y91.953 E17.17486
G1 X99.638 Y92.099 E17.30254
G1 X102.198 Y92.172 E17.43031
G1 X104.693 Y92.172 E17.55479
G1 X107.222 Y92.101 E17.68101
G1 X109.82 Y91.955 E17.81083
G1 X110.367 Y91.921 E17.83817
G1 X110.704 Y91.906 E17.855
G1 X111.024 Y91.897 E17.87097
G1 X111.33 Y91.893 E17.88624
G1 X125.65 Y91.894 E18.60067
G1 X126.348 Y91.904 E18.63549
G1 X127.28 Y91.957 E18.68207
G1 X128.204 Y92.09 E18.72864
G1 X129.114 Y92.302 E18.77526
G1 X130.002 Y92.59 E18.82183
G1 X130.861 Y92.954 E18.86838
G1 X131.687 Y93.39 E18.91497
G1 X132.473 Y93.894 E18.96156
G1 X133.212 Y94.464 E19.00812
G1 X133.9 Y95.096 E19.05473
G1 X134.531 Y95.784 E19.1013
G1 X135.101 Y96.523 E19.14786
G1 X135.606 Y97.308 E19.19443
G1 X136.041 Y98.134 E19.24101
G1 X136.405 Y98.994 E19.2876
G1 X136.693 Y99.882 E19.33417
G1 X136.905 Y100.791 E19.38074
G1 X137.038 Y101.715 E19.42731
G1 X137.088 Y102.496 E19.46635
G1 X137.097 Y102.815 E19.48228
G1 X137.101 Y103.123 E19.49764
G1 X137.099 Y114.703 E20.07537
G1 X137.089 Y115.403 E20.1103
G1 X137.036 Y116.335 E20.15687
G1 X136.903 Y117.259 E20.20345
G1 X136.691 Y118.168 E20.25001
G1 X136.403 Y119.056 E20.29659
G1 X136.039 Y119.916 E20.34318
G1 X135.604 Y120.742 E20.38975
G1 X135.099 Y121.527 E20.43632
G1 X134.774 Y121.965 E20.46353
G1 X134.519 Y122.284 E20.48391
G1 X134.151 Y122.729 E20.51271
G1 X128.662 Y129.221 E20.93685
G1 X128.113 Y129.852 E20.97858
G1 X127.47 Y130.529 E21.02517
G1 X126.772 Y131.149 E21.07174
G1 X126.023 Y131.707 E21.11834
G1 X125.23 Y132.198 E21.16487
G1 X124.397 Y132.62 E21.21146
G1 X123.531 Y132.969 E21.25804
G1 X122.638 Y133.243 E21.30464
G1 X121.725 Y133.439 E21.35123
G1 X120.799 Y133.556 E21.3978
G1 X119.58 Y133.59 E21.45864
G1 X119.336 Y133.583 E21.47081
G1 X118.405 Y133.516 E21.51738
G1 X117.795 Y133.428 E21.54813
G1 X117.372 Y133.355 E21.56955
G1 X116.973 Y133.279 E21.58981
G1 X116.154 Y133.106 E21.63157
G1 X115.153 Y132.844 E21.68319
G1 X114.779 Y132.727 E21.70274
G1 X114.322 Y132.575 E21.72677
G1 X113.518 Y132.29 E21.76933
G1 X112.701 Y131.961 E21.81327
G1 X112.51 Y131.875 E21.82372
G1 X112.241 Y131.75 E21.83852
G1 X111.91 Y131.59 E21.85686
G1 X111.69 Y131.48 E21.86913
G1 X110.168 Y130.7 E21.95446
G1 X109.174 Y130.175 E22.01054
G1 X106.859 Y129.034 E22.1393
G1 X104.583 Y127.993 E22.26417
G1 X102.29 Y127.02 E22.38844
G1 X99.907 Y126.086 E22.51613
G1 X97.527 Y125.235 E22.64223
G1 X95.195 Y124.471 E22.76466
G1 X92.17 Y123.584 E22.92193
G1 X91.11 Y123.292 E22.97679
G1 X90.222 Y123.006 E23.02333
G1 X89.361 Y122.644 E23.06993
G1 X88.534 Y122.21 E23.11652
G1 X87.748 Y121.707 E23.16308
G1 X87.008 Y121.138 E23.20965
G1 X86.318 Y120.508 E23.25626
G1 X85.686 Y119.822 E23.3028
G1 X85.114 Y119.084 E23.34938
G1 X84.608 Y118.299 E23.39598
G1 X84.17 Y117.475 E23.44253
G1 X83.805 Y116.615 E23.48914
G1 X83.515 Y115.728 E23.5357
G1 X83.301 Y114.819 E23.58229
G1 X83.167 Y113.895 E23.62887
G1 X83.115 Y113.123 E23.66748
G1 X83.105 Y112.801 E23.68355
G1 X83.1 Y112.463 E23.70041
G1 X83.101 Y103.319 E24.15661
G1 X83.11 Y102.654 E24.18979
G1 X83.163 Y101.722 E24.23636
G1 X83.295 Y100.798 E24.28293
G1 X83.506 Y99.889 E24.32948
G1 X83.793 Y99.001 E24.37604
G1 X84.156 Y98.14 E24.42266
G1 X84.591 Y97.314 E24.46923
G1 X85.095 Y96.529 E24.51578
G1 X85.665 Y95.789 E24.56238
G1 X86.296 Y95.1 E24.60899
G0 F6000 X86.883 Y95.365
G1 F1200 X87.565 Y94.766 E24.65427
G1 X88.298 Y94.23 E24.69958
G1 X89.074 Y93.761 E24.74481
G1 X89.889 Y93.362 E24.79009
G1 X90.736 Y93.036 E24.83536
G1 X91.609 Y92.786 E24.88067
G1 X92.5 Y92.613 E24.92595
G1 X93.72 Y92.506 E24.98705
G1 X94.041 Y92.497 E25.00307
G1 X94.33 Y92.493 E25.01749
G1 X95.293 Y92.493 E25.06554
G1 X96.159 Y92.505 E25.10874
G1 X96.71 Y92.529 E25.13626
G1 X97.014 Y92.55 E25.15146
G1 X99.62 Y92.699 E25.28169
G1 X102.181 Y92.772 E25.40951
G1 X104.709 Y92.772 E25.53563
G1 X107.238 Y92.701 E25.66185
G1 X109.845 Y92.555 E25.79212
G1 X110.013 Y92.543 E25.80053
G1 X110.402 Y92.52 E25.81997
G1 X110.72 Y92.506 E25.83585
G1 X111.04 Y92.497 E25.85182
G1 X111.33 Y92.493 E25.86629
G1 X125.642 Y92.494 E26.58032
G1 X126.34 Y92.504 E26.61514
G1 X127.246 Y92.557 E26.66042
G1 X128.143 Y92.69 E26.70566
G1 X129.026 Y92.901 E26.75095
G1 X129.887 Y93.188 E26.79623
G1 X130.719 Y93.551 E26.84152
G1 X131.515 Y93.985 E26.88675
G1 X132.271 Y94.488 E26.93206
G1 X132.979 Y95.056 E26.97734
G1 X133.635 Y95.683 E27.02261
G1 X134.233 Y96.366 E27.0679
G1 X134.768 Y97.099 E27.11318
G1 X135.237 Y97.876 E27.15846
G1 X135.636 Y98.691 E27.20373
G1 X135.961 Y99.538 E27.24899
G1 X136.21 Y100.411 E27.29428
G1 X136.382 Y101.302 E27.33955
G1 X136.488 Y102.513 E27.4002
G1 X136.497 Y102.832 E27.41612
G1 X136.501 Y103.123 E27.43064
G1 X136.499 Y114.694 E28.00792
G1 X136.489 Y115.394 E28.04285
G1 X136.436 Y116.3 E28.08813
G1 X136.304 Y117.198 E28.13341
G1 X136.093 Y118.081 E28.1787
G1 X135.805 Y118.941 E28.22395
G1 X135.442 Y119.773 E28.26924
G1 X135.008 Y120.57 E28.31451
G1 X134.301 Y121.595 E28.37663
G1 X134.056 Y121.902 E28.39623
G1 X133.692 Y122.341 E28.42468
G1 X128.106 Y128.947 E28.85629
G1 X127.661 Y129.458 E28.8901
G1 X127.035 Y130.116 E28.93541
G1 X126.354 Y130.716 E28.98069
G1 X125.623 Y131.253 E29.02594
G1 X124.847 Y131.724 E29.07123
G1 X124.033 Y132.125 E29.1165
G1 X123.187 Y132.453 E29.16177
G1 X122.315 Y132.705 E29.20705
G1 X121.424 Y132.88 E29.25235
G1 X120.522 Y132.975 E29.2976
G1 X119.598 Y132.99 E29.34371
G1 X119.354 Y132.983 E29.35589
G1 X118.449 Y132.917 E29.40116
G1 X117.897 Y132.837 E29.42898
G1 X117.474 Y132.764 E29.4504
G1 X117.097 Y132.692 E29.46955
G1 X116.278 Y132.519 E29.51131
G1 X115.332 Y132.271 E29.5601
G1 X114.958 Y132.154 E29.57965
G1 X114.718 Y132.076 E29.59224
G1 X114.373 Y131.958 E29.61043
G1 X113.719 Y131.725 E29.64507
G1 X112.947 Y131.414 E29.68659
G1 X112.756 Y131.328 E29.69704
G1 X112.502 Y131.209 E29.71104
G1 X112.171 Y131.049 E29.72938
G1 X111.964 Y130.946 E29.74091
G1 X110.448 Y130.17 E29.82588
G1 X109.395 Y129.614 E29.88529
G1 X107.175 Y128.52 E30.00876
G1 X104.813 Y127.439 E30.13836
G1 X102.502 Y126.458 E30.26361
G1 X100.117 Y125.524 E30.3914
G1 X97.736 Y124.672 E30.51756
G1 X95.351 Y123.892 E30.64275
G1 X92.367 Y123.017 E30.79789
G1 X91.27 Y122.714 E30.85467
G1 X90.407 Y122.434 E30.89994
G1 X89.571 Y122.079 E30.94525
G1 X88.77 Y121.653 E30.99051
G1 X88.01 Y121.157 E31.03579
G1 X87.296 Y120.596 E31.08109
G1 X86.635 Y119.975 E31.12634
G1 X86.031 Y119.298 E31.1716
G1 X85.488 Y118.57 E31.21691
G1 X85.012 Y117.798 E31.26216
G1 X84.606 Y116.986 E31.30745
G1 X84.272 Y116.142 E31.35274
G1 X84.015 Y115.272 E31.398
G1 X83.835 Y114.383 E31.44325
G1 X83.715 Y113.105 E31.50729
G1 X83.705 Y112.783 E31.52336
G1 X83.7 Y112.463 E31.53933
G1 X83.701 Y103.328 E31.99508
G1 X83.71 Y102.663 E32.02826
G1 X83.762 Y101.757 E32.07353
G1 X83.894 Y100.859 E32.11881
G1 X84.104 Y99.976 E32.1641
G1 X84.392 Y99.115 E32.20939
G1 X84.753 Y98.283 E32.25464
G1 X85.187 Y97.486 E32.29991
G1 X85.689 Y96.73 E32.34519
G1 X86.256 Y96.021 E32.39048
G1 X86.883 Y95.365 E32.43575
G1 F1500 E26.43575
G1 F300 Z0.4
;MESH:Heat_tower_190-240_Bridge.stl
G0 F6000 X119.293 Y121.097 Z0.4
;TYPE:WALL-INNER
G1 F300 Z0.2
G1 F1500 E32.43575
G1 F1200 X118.791 Y120.998 E32.46128
G1 X117.751 Y120.644 E32.51609
G1 X116.754 Y120.152 E32.57156
G1 X115.827 Y119.532 E32.6272
G1 X114.992 Y118.801 E32.68256
G1 X114.257 Y117.962 E32.73821
G1 X113.643 Y117.043 E32.79335
G1 X113.148 Y116.04 E32.84915
G1 X112.793 Y114.992 E32.90436
G1 X112.577 Y113.907 E32.95955
G1 X112.5 Y112.743 E33.01775
