;FLAVOR:Marlin
;TIME:1129
;Filament used: 0.476098m
;Layer height: 0.16
;MINX:23.149
;MINY:33.69
;MINZ:0.2
;MAXX:177.708
;MAXY:190.542
;MAXZ:9.75
;Generated with Creality Slicer 4.8.2-205
M140 S70
M105
M190 S70
M104 S220
M105
M109 S220
M82 ;absolute extrusion mode

G28 ;Home

G92 E0 ;Reset Extruder
G1 Z2.0 F3000 ;Move Z Axis up
G1 X10.1 Y20 Z0.28 F5000.0 ;Move to start position
G1 X10.1 Y200.0 Z0.28 F1500.0 E15 ;Draw the first line
G1 X10.4 Y200.0 Z0.28 F5000.0 ;Move to side a little
G1 X10.4 Y20 Z0.28 F1500.0 E30 ;Draw the second line
G92 E0 ;Reset Extruder
G1 Z2.0 F3000 ;Move Z Axis up

G92 E0
G92 E0
G1 F1500 E-6
;LAYER_COUNT:25
;LAYER:0
M107
G1 F300 Z0.4
G0 F6000 X36.86 Y154.564 Z0.4
;TYPE:SKIRT
G1 F300 Z0.2
G1 F1500 E0
G1 F1200 X37.816 Y154.345 E0.04893
G1 X38.211 Y154.27 E0.06899
G1 X39.071 Y154.136 E0.11241
G1 X39.356 Y154.101 E0.12674
G1 X40.27 Y154.021 E0.17251
G1 X40.627 Y154.002 E0.19035
G1 X41.557 Y153.985 E0.23675
G1 X41.915 Y153.991 E0.25462
G1 X42.839 Y154.039 E0.30078
G1 X43.197 Y154.07 E0.31871
G1 X44.121 Y154.182 E0.36514
G1 X44.584 Y154.255 E0.38853
G1 X45.45 Y154.421 E0.43252
G1 X45.503 Y154.433 E0.43523
G1 X46.412 Y154.673 E0.48213
G1 X46.849 Y154.805 E0.50491
G1 X47.692 Y155.091 E0.54932
G1 X48.199 Y155.282 E0.57635
G1 X49.164 Y155.69 E0.62862
G1 X49.953 Y156.09 E0.67275
G1 X50.34 Y156.303 E0.69479
G1 X51.093 Y156.751 E0.7385
G1 X51.462 Y156.987 E0.76036
G1 X52.163 Y157.468 E0.80277
G1 X52.362 Y157.614 E0.81508
G1 X53.117 Y158.21 E0.86307
G1 X53.44 Y158.485 E0.88424
G1 X54.128 Y159.114 E0.93075
G1 X54.331 Y159.313 E0.94493
G1 X54.993 Y160.01 E0.99289
G1 X55.241 Y160.291 E1.01158
G1 X55.812 Y160.985 E1.05642
G1 X56.025 Y161.262 E1.07385
G1 X56.542 Y161.983 E1.11812
G1 X56.739 Y162.278 E1.13581
G1 X57.237 Y163.084 E1.18308
G1 X57.463 Y163.481 E1.20587
G1 X57.859 Y164.23 E1.24814
G1 X57.899 Y164.312 E1.25269
G1 X58.282 Y165.175 E1.2998
G1 X58.431 Y165.545 E1.3197
G1 X58.757 Y166.445 E1.36745
G1 X58.89 Y166.859 E1.38915
G1 X59.143 Y167.755 E1.4356
G1 X59.213 Y168.04 E1.45024
G1 X59.399 Y168.928 E1.4955
G1 X59.471 Y169.341 E1.51642
G1 X59.597 Y170.246 E1.56201
G1 X59.624 Y170.505 E1.575
G1 X59.688 Y171.433 E1.6214
G1 X59.701 Y171.816 E1.64052
G1 X59.702 Y172.685 E1.68388
G1 X59.692 Y173.003 E1.69975
G1 X59.626 Y173.972 E1.74821
G1 X59.585 Y174.363 E1.76782
G1 X59.46 Y175.26 E1.813
G1 X59.407 Y175.564 E1.8284
G1 X59.219 Y176.461 E1.87412
G1 X59.136 Y176.798 E1.89144
G1 X58.902 Y177.631 E1.93461
G1 X58.751 Y178.108 E1.95957
G1 X58.309 Y179.302 E2.02309
G1 X58.039 Y179.901 E2.05587
G1 X57.83 Y180.336 E2.07994
G1 X57.398 Y181.161 E2.12641
G1 X57.247 Y181.426 E2.14162
G1 X56.784 Y182.178 E2.18568
G1 X56.577 Y182.491 E2.2044
G1 X56.027 Y183.262 E2.25165
G1 X55.784 Y183.578 E2.27154
G1 X55.231 Y184.25 E2.31496
G1 X55.057 Y184.448 E2.32811
G1 X54.399 Y185.144 E2.37589
G1 X54.135 Y185.404 E2.39438
G1 X53.422 Y186.058 E2.44265
G1 X53.127 Y186.309 E2.46197
G1 X52.408 Y186.879 E2.50775
G1 X52.194 Y187.037 E2.52102
G1 X51.471 Y187.534 E2.56479
G1 X51.095 Y187.775 E2.58707
G1 X50.358 Y188.215 E2.6299
G1 X50.152 Y188.329 E2.64164
G1 X49.284 Y188.769 E2.69019
G1 X48.766 Y189.008 E2.71865
G1 X48.093 Y189.296 E2.75517
G1 X46.954 Y189.693 E2.81535
G1 X46.357 Y189.871 E2.84643
G1 X45.358 Y190.127 E2.89788
G1 X44.595 Y190.268 E2.93659
G1 X44.008 Y190.359 E2.96623
G1 X43.101 Y190.468 E3.01181
G1 X42.855 Y190.489 E3.02412
G1 X41.974 Y190.535 E3.06814
G1 X41.601 Y190.542 E3.08675
G1 X40.675 Y190.527 E3.13295
G1 X40.282 Y190.507 E3.15259
G1 X39.321 Y190.423 E3.20071
G1 X39.063 Y190.391 E3.21368
G1 X38.245 Y190.263 E3.25499
G1 X37.851 Y190.189 E3.27499
G1 X36.874 Y189.967 E3.32498
G1 X36.582 Y189.889 E3.34005
G1 X35.732 Y189.632 E3.38436
G1 X35.338 Y189.498 E3.40512
G1 X34.465 Y189.166 E3.45172
G1 X34.201 Y189.055 E3.466
G1 X33.408 Y188.691 E3.50954
G1 X33.104 Y188.539 E3.52649
G1 X32.28 Y188.09 E3.57331
G1 X31.969 Y187.906 E3.59134
G1 X31.141 Y187.373 E3.64047
G1 X30.838 Y187.162 E3.65889
G1 X30.146 Y186.647 E3.70192
G1 X29.914 Y186.462 E3.71673
G1 X29.224 Y185.871 E3.76205
G1 X28.939 Y185.61 E3.78133
G1 X28.297 Y184.982 E3.82614
G1 X28.09 Y184.765 E3.8411
G1 X27.457 Y184.052 E3.88867
G1 X27.23 Y183.777 E3.90646
G1 X26.664 Y183.04 E3.95282
G1 X26.419 Y182.697 E3.97385
G1 X25.918 Y181.943 E4.01901
G1 X25.711 Y181.607 E4.0387
G1 X25.284 Y180.861 E4.08158
G1 X24.831 Y179.927 E4.13337
G1 X24.593 Y179.384 E4.16295
G1 X24.26 Y178.549 E4.2078
G1 X24.129 Y178.185 E4.2271
G1 X23.862 Y177.36 E4.27036
G1 X23.843 Y177.294 E4.27379
G1 X23.607 Y176.342 E4.32272
G1 X23.501 Y175.836 E4.34851
G1 X23.349 Y174.972 E4.39228
G1 X23.306 Y174.668 E4.4076
G1 X23.206 Y173.706 E4.45585
G1 X23.181 Y173.338 E4.47425
G1 X23.15 Y172.477 E4.51724
G1 X23.149 Y172.141 E4.534
G1 X23.181 Y171.172 E4.58237
G1 X23.209 Y170.772 E4.60237
G1 X23.307 Y169.844 E4.64893
G1 X23.34 Y169.61 E4.66072
G1 X23.488 Y168.764 E4.70357
G1 X23.576 Y168.34 E4.72517
G1 X23.811 Y167.384 E4.77429
G1 X23.902 Y167.066 E4.79079
G1 X24.171 Y166.232 E4.83451
G1 X24.33 Y165.789 E4.85799
G1 X24.663 Y164.951 E4.90298
G1 X24.698 Y164.871 E4.90733
G1 X25.107 Y164.02 E4.95444
G1 X25.37 Y163.519 E4.98267
G1 X25.8 Y162.761 E5.02615
G1 X25.863 Y162.658 E5.03217
G1 X26.126 Y162.246 E5.05656
G1 X26.258 Y162.047 E5.06847
G1 X26.573 Y161.592 E5.09608
G1 X26.631 Y161.512 E5.10101
G1 X27.161 Y160.83 E5.1441
G1 X27.428 Y160.508 E5.16497
G1 X28.016 Y159.844 E5.20922
G1 X28.292 Y159.553 E5.22923
G1 X28.942 Y158.913 E5.27474
G1 X29.189 Y158.686 E5.29147
G1 X29.885 Y158.09 E5.33719
G1 X30.149 Y157.879 E5.35405
G1 X30.877 Y157.337 E5.39933
G1 X31.18 Y157.127 E5.41772
G1 X31.994 Y156.605 E5.46597
G1 X32.265 Y156.445 E5.48167
G1 X33.048 Y156.018 E5.52616
G1 X33.354 Y155.864 E5.54325
G1 X34.183 Y155.482 E5.58879
G1 X34.533 Y155.335 E5.60773
G1 X35.398 Y155.006 E5.6539
G1 X35.683 Y154.909 E5.66892
G1 X36.531 Y154.652 E5.71313
G1 X36.86 Y154.564 E5.73012
G0 F6000 X37.015 Y155.143
G1 F1200 X37.928 Y154.935 E5.77684
G1 X38.323 Y154.86 E5.7969
G1 X39.144 Y154.732 E5.83835
G1 X39.429 Y154.697 E5.85268
G1 X40.302 Y154.62 E5.8964
G1 X40.659 Y154.601 E5.91424
G1 X41.547 Y154.585 E5.95855
G1 X41.905 Y154.591 E5.97641
G1 X42.788 Y154.636 E6.02052
G1 X43.146 Y154.667 E6.03845
G1 X44.028 Y154.775 E6.08278
G1 X44.491 Y154.848 E6.10616
G1 X45.317 Y155.007 E6.14813
G1 X45.37 Y155.019 E6.15084
G1 X46.238 Y155.248 E6.19563
G1 X46.675 Y155.38 E6.2184
G1 X47.48 Y155.652 E6.26079
G1 X47.987 Y155.843 E6.28782
G1 X48.911 Y156.233 E6.33786
G1 X49.664 Y156.616 E6.38001
G1 X50.051 Y156.829 E6.40205
G1 X50.77 Y157.256 E6.44377
G1 X51.139 Y157.492 E6.46562
G1 X51.809 Y157.951 E6.50614
G1 X52.008 Y158.097 E6.51845
G1 X52.728 Y158.667 E6.56427
G1 X53.051 Y158.942 E6.58543
G1 X53.708 Y159.543 E6.62985
G1 X53.911 Y159.742 E6.64403
G1 X54.543 Y160.407 E6.6898
G1 X54.791 Y160.688 E6.7085
G1 X55.337 Y161.35 E6.75131
G1 X55.55 Y161.627 E6.76875
G1 X56.044 Y162.316 E6.81104
G1 X56.241 Y162.611 E6.82874
G1 X56.716 Y163.381 E6.87388
G1 X56.942 Y163.778 E6.89667
G1 X57.319 Y164.493 E6.937
G1 X57.359 Y164.575 E6.94155
G1 X57.726 Y165.399 E6.98655
G1 X57.875 Y165.769 E7.00645
G1 X58.185 Y166.629 E7.05206
G1 X58.318 Y167.043 E7.07375
G1 X58.56 Y167.898 E7.11808
G1 X58.63 Y168.183 E7.13273
G1 X58.808 Y169.031 E7.17595
G1 X58.88 Y169.444 E7.19687
G1 X59.001 Y170.308 E7.2404
G1 X59.028 Y170.567 E7.25339
G1 X59.089 Y171.453 E7.29769
G1 X59.102 Y171.836 E7.31681
G1 X59.103 Y172.666 E7.35822
G1 X59.093 Y172.984 E7.3741
G1 X59.03 Y173.909 E7.42035
G1 X58.989 Y174.3 E7.43996
G1 X58.869 Y175.157 E7.48314
G1 X58.816 Y175.461 E7.49853
G1 X58.636 Y176.317 E7.54217
G1 X58.553 Y176.654 E7.55949
G1 X58.33 Y177.45 E7.60073
G1 X58.179 Y177.927 E7.62569
G1 X57.757 Y179.067 E7.68634
G1 X57.498 Y179.641 E7.71776
G1 X57.289 Y180.076 E7.74183
G1 X56.876 Y180.864 E7.78622
G1 X56.725 Y181.129 E7.80143
G1 X56.284 Y181.847 E7.84347
G1 X56.077 Y182.16 E7.86219
G1 X55.552 Y182.896 E7.9073
G1 X55.309 Y183.212 E7.92719
G1 X54.781 Y183.853 E7.96862
G1 X54.607 Y184.051 E7.98177
G1 X53.978 Y184.717 E8.02747
G1 X53.714 Y184.977 E8.04596
G1 X53.033 Y185.601 E8.09204
G1 X52.738 Y185.852 E8.11136
G1 X52.051 Y186.396 E8.15508
G1 X51.837 Y186.554 E8.16835
G1 X51.147 Y187.029 E8.21015
G1 X50.771 Y187.27 E8.23243
G1 X50.067 Y187.69 E8.27333
G1 X49.861 Y187.804 E8.28507
G1 X49.033 Y188.224 E8.33139
G1 X48.515 Y188.463 E8.35985
G1 X47.871 Y188.739 E8.39481
G1 X46.783 Y189.118 E8.45229
G1 X46.186 Y189.296 E8.48337
G1 X45.209 Y189.545 E8.53367
G1 X44.503 Y189.675 E8.56948
G1 X43.916 Y189.766 E8.59912
G1 X43.05 Y189.87 E8.64263
G1 X42.804 Y189.891 E8.65495
G1 X41.962 Y189.935 E8.69702
G1 X41.589 Y189.942 E8.71563
G1 X40.706 Y189.928 E8.75969
G1 X40.313 Y189.908 E8.77932
G1 X39.395 Y189.827 E8.8253
G1 X39.137 Y189.795 E8.83827
G1 X38.356 Y189.674 E8.8777
G1 X37.962 Y189.6 E8.8977
G1 X37.028 Y189.388 E8.94548
G1 X36.736 Y189.31 E8.96056
G1 X35.925 Y189.064 E9.00284
G1 X35.531 Y188.93 E9.0236
G1 X34.698 Y188.613 E9.06807
G1 X34.434 Y188.502 E9.08236
G1 X33.676 Y188.154 E9.12397
G1 X33.372 Y188.002 E9.14092
G1 X32.585 Y187.573 E9.18564
G1 X32.274 Y187.389 E9.20367
G1 X31.483 Y186.881 E9.25057
G1 X31.18 Y186.67 E9.26899
G1 X30.52 Y186.178 E9.31006
G1 X30.288 Y185.993 E9.32487
G1 X29.629 Y185.429 E9.36814
G1 X29.344 Y185.168 E9.38742
G1 X28.732 Y184.568 E9.43018
G1 X28.525 Y184.351 E9.44514
G1 X27.92 Y183.67 E9.49059
G1 X27.693 Y183.395 E9.50838
G1 X27.153 Y182.692 E9.5526
G1 X26.908 Y182.349 E9.57363
G1 X26.429 Y181.628 E9.61682
G1 X26.222 Y181.292 E9.63651
G1 X25.836 Y180.621 E9.67513
G1 X25.813 Y180.578 E9.67756
G1 X25.38 Y179.686 E9.72703
G1 X25.142 Y179.143 E9.75661
G1 X24.824 Y178.346 E9.79942
G1 X24.693 Y177.982 E9.81872
G1 X24.439 Y177.194 E9.86002
G1 X24.42 Y177.128 E9.86345
G1 X24.194 Y176.219 E9.91018
G1 X24.088 Y175.713 E9.93597
G1 X23.943 Y174.888 E9.97776
G1 X23.9 Y174.584 E9.99308
G1 X23.804 Y173.666 E10.03913
G1 X23.779 Y173.298 E10.05753
G1 X23.75 Y172.475 E10.09862
G1 X23.749 Y172.139 E10.11538
G1 X23.78 Y171.214 E10.16155
G1 X23.808 Y170.814 E10.18156
G1 X23.901 Y169.928 E10.226
G1 X23.934 Y169.694 E10.23779
G1 X24.075 Y168.886 E10.27872
G1 X24.163 Y168.462 E10.30032
G1 X24.388 Y167.549 E10.34723
G1 X24.479 Y167.231 E10.36373
G1 X24.736 Y166.435 E10.40546
G1 X24.895 Y165.992 E10.42895
G1 X25.213 Y165.192 E10.4719
G1 X25.248 Y165.112 E10.47625
G1 X25.638 Y164.299 E10.52124
G1 X25.901 Y163.798 E10.54947
G1 X26.312 Y163.074 E10.591
G1 X26.375 Y162.971 E10.59703
G1 X26.626 Y162.578 E10.62029
G1 X26.758 Y162.379 E10.63221
G1 X27.059 Y161.945 E10.65856
G1 X27.117 Y161.865 E10.66349
G1 X27.623 Y161.213 E10.70466
G1 X27.89 Y160.891 E10.72553
G1 X28.451 Y160.257 E10.76776
G1 X28.727 Y159.966 E10.78777
G1 X29.348 Y159.355 E10.83124
G1 X29.595 Y159.128 E10.84797
G1 X30.26 Y158.558 E10.89167
G1 X30.524 Y158.347 E10.90853
G1 X31.219 Y157.83 E10.95175
G1 X31.522 Y157.62 E10.97014
G1 X32.299 Y157.122 E11.01618
G1 X32.57 Y156.962 E11.03188
G1 X33.318 Y156.554 E11.07439
G1 X33.624 Y156.4 E11.09148
G1 X34.415 Y156.035 E11.13494
G1 X34.765 Y155.888 E11.15388
G1 X35.591 Y155.574 E11.19797
G1 X35.876 Y155.477 E11.21299
G1 X36.686 Y155.231 E11.25522
G1 X37.015 Y155.143 E11.27221
G0 F6000 X37.17 Y155.723
G1 F1200 X38.04 Y155.524 E11.31674
G1 X38.435 Y155.449 E11.3368
G1 X39.217 Y155.327 E11.37628
G1 X39.502 Y155.292 E11.39061
G1 X40.334 Y155.219 E11.43228
G1 X40.691 Y155.2 E11.45011
G1 X41.537 Y155.185 E11.49233
G1 X41.895 Y155.191 E11.51019
G1 X42.736 Y155.234 E11.5522
G1 X43.094 Y155.265 E11.57013
G1 X43.934 Y155.368 E11.61235
G1 X44.397 Y155.441 E11.63574
G1 X45.185 Y155.592 E11.67577
G1 X45.238 Y155.604 E11.67848
G1 X46.065 Y155.822 E11.72115
G1 X46.502 Y155.954 E11.74392
G1 X47.269 Y156.214 E11.78433
G1 X47.776 Y156.405 E11.81136
G1 X48.657 Y156.777 E11.85907
G1 X49.374 Y157.142 E11.89921
G1 X49.761 Y157.355 E11.92124
G1 X50.446 Y157.762 E11.961
G1 X50.815 Y157.998 E11.98285
G1 X51.454 Y158.435 E12.02147
G1 X51.653 Y158.581 E12.03378
G1 X52.339 Y159.124 E12.07743
G1 X52.662 Y159.399 E12.0986
G1 X53.288 Y159.971 E12.1409
G1 X53.491 Y160.17 E12.15509
G1 X54.093 Y160.804 E12.1987
G1 X54.341 Y161.085 E12.2174
G1 X54.861 Y161.716 E12.25819
G1 X55.074 Y161.993 E12.27563
G1 X55.545 Y162.649 E12.31592
G1 X55.742 Y162.944 E12.33362
G1 X56.195 Y163.678 E12.37665
G1 X56.421 Y164.075 E12.39944
G1 X56.78 Y164.756 E12.43785
G1 X56.82 Y164.838 E12.4424
G1 X57.169 Y165.623 E12.48526
G1 X57.318 Y165.993 E12.50516
G1 X57.614 Y166.812 E12.5486
G1 X57.747 Y167.226 E12.5703
G1 X57.978 Y168.041 E12.61256
G1 X58.048 Y168.326 E12.6272
G1 X58.217 Y169.134 E12.66838
G1 X58.289 Y169.547 E12.6893
G1 X58.404 Y170.37 E12.73076
G1 X58.431 Y170.629 E12.74375
G1 X58.489 Y171.474 E12.78601
G1 X58.502 Y171.857 E12.80513
G1 X58.503 Y172.647 E12.84454
G1 X58.493 Y172.965 E12.86041
G1 X58.433 Y173.847 E12.90452
G1 X58.392 Y174.238 E12.92413
G1 X58.278 Y175.054 E12.96524
G1 X58.225 Y175.358 E12.98063
G1 X58.054 Y176.174 E13.02223
G1 X57.971 Y176.511 E13.03954
G1 X57.758 Y177.269 E13.07882
G1 X57.607 Y177.746 E13.10379
G1 X57.205 Y178.832 E13.16156
G1 X56.957 Y179.381 E13.19161
G1 X56.748 Y179.816 E13.21569
G1 X56.355 Y180.566 E13.25793
G1 X56.204 Y180.831 E13.27315
G1 X55.784 Y181.516 E13.31324
G1 X55.577 Y181.829 E13.33196
G1 X55.076 Y182.53 E13.37495
G1 X54.833 Y182.846 E13.39483
G1 X54.33 Y183.457 E13.43432
G1 X54.156 Y183.655 E13.44747
G1 X53.557 Y184.289 E13.49098
G1 X53.293 Y184.549 E13.50947
G1 X52.644 Y185.144 E13.5534
G1 X52.349 Y185.395 E13.57272
G1 X51.695 Y185.913 E13.61434
G1 X51.481 Y186.071 E13.62761
G1 X50.823 Y186.524 E13.66747
G1 X50.447 Y186.765 E13.68975
G1 X49.777 Y187.165 E13.72868
G1 X49.571 Y187.279 E13.74043
G1 X48.781 Y187.679 E13.7846
G1 X48.263 Y187.918 E13.81307
G1 X47.648 Y188.182 E13.84646
G1 X46.611 Y188.543 E13.90124
G1 X46.014 Y188.721 E13.93232
G1 X45.061 Y188.963 E13.98137
G1 X44.411 Y189.082 E14.01434
G1 X43.824 Y189.173 E14.04397
G1 X42.999 Y189.272 E14.08543
G1 X42.753 Y189.293 E14.09775
G1 X41.951 Y189.335 E14.13781
G1 X41.578 Y189.342 E14.15643
G1 X40.736 Y189.328 E14.19844
G1 X40.343 Y189.308 E14.21807
G1 X39.469 Y189.232 E14.26184
G1 X39.211 Y189.2 E14.27481
G1 X38.466 Y189.084 E14.31243
G1 X38.072 Y189.01 E14.33243
G1 X37.183 Y188.808 E14.37791
G1 X36.891 Y188.73 E14.39299
G1 X36.118 Y188.496 E14.43328
G1 X35.724 Y188.362 E14.45404
G1 X34.93 Y188.06 E14.49643
G1 X34.666 Y187.949 E14.51071
G1 X33.945 Y187.618 E14.55029
G1 X33.641 Y187.466 E14.56725
G1 X32.891 Y187.057 E14.60987
G1 X32.58 Y186.873 E14.6279
G1 X31.826 Y186.389 E14.6726
G1 X31.523 Y186.178 E14.69102
G1 X30.894 Y185.708 E14.73019
G1 X30.662 Y185.523 E14.745
G1 X30.034 Y184.986 E14.78622
G1 X29.749 Y184.725 E14.8055
G1 X29.166 Y184.154 E14.84621
G1 X28.959 Y183.937 E14.86118
G1 X28.382 Y183.288 E14.9045
G1 X28.155 Y183.013 E14.92229
G1 X27.641 Y182.343 E14.96442
G1 X27.396 Y182 E14.98545
G1 X26.94 Y181.314 E15.02655
G1 X26.733 Y180.978 E15.04624
G1 X26.342 Y180.295 E15.0855
G1 X25.93 Y179.445 E15.13262
G1 X25.692 Y178.902 E15.1622
G1 X25.389 Y178.142 E15.20302
G1 X25.258 Y177.778 E15.22232
G1 X25.015 Y177.028 E15.26166
G1 X24.996 Y176.962 E15.26508
G1 X24.781 Y176.096 E15.3096
G1 X24.675 Y175.59 E15.33539
G1 X24.537 Y174.804 E15.3752
G1 X24.494 Y174.5 E15.39052
G1 X24.403 Y173.625 E15.43441
G1 X24.378 Y173.257 E15.45281
G1 X24.35 Y172.473 E15.49195
G1 X24.349 Y172.137 E15.50871
G1 X24.379 Y171.256 E15.55269
G1 X24.407 Y170.856 E15.5727
G1 X24.496 Y170.011 E15.61509
G1 X24.529 Y169.777 E15.62688
G1 X24.662 Y169.008 E15.66581
G1 X24.75 Y168.584 E15.68742
G1 X24.965 Y167.714 E15.73213
G1 X25.056 Y167.396 E15.74863
G1 X25.3 Y166.637 E15.78841
G1 X25.459 Y166.194 E15.81189
G1 X25.762 Y165.432 E15.8528
G1 X25.797 Y165.352 E15.85716
G1 X26.169 Y164.578 E15.9
G1 X26.432 Y164.077 E15.92823
G1 X26.824 Y163.387 E15.96782
G1 X26.887 Y163.284 E15.97384
G1 X27.126 Y162.91 E15.99599
G1 X27.258 Y162.711 E16.0079
G1 X27.545 Y162.297 E16.03303
G1 X27.603 Y162.217 E16.03796
G1 X28.085 Y161.596 E16.07718
G1 X28.352 Y161.274 E16.09805
G1 X28.887 Y160.67 E16.13831
G1 X29.163 Y160.379 E16.15832
G1 X29.754 Y159.797 E16.1997
