;FLAVOR:Marlin
;TIME:1510
;Filament used: 0.722319m
;Layer height: 0.16
;MINX:90.4
;MINY:80.4
;MINZ:0.2
;MAXX:134.6
;MAXY:144.6
;MAXZ:25.8
;Generated with Creality Slicer 4.8.2-205
M140 S65
M105
M190 S65
M104 S205
M105
M109 S205
M82 ;absolute extrusion mode

G28 ;Home

G92 E0 ;Reset Extruder
G1 Z2.0 F3000 ;Move Z Axis up
G1 X10.1 Y20 Z0.28 F5000.0 ;Move to start position
G1 X10.1 Y200.0 Z0.28 F1500.0 E15 ;Draw the first line
G1 X10.4 Y200.0 Z0.28 F5000.0 ;Move to side a little
G1 X10.4 Y20 Z0.28 F1500.0 E30 ;Draw the second line
G92 E0 ;Reset Extruder
G1 Z2.0 F3000 ;Move Z Axis up

G92 E0
G92 E0
G1 F1500 E-6
;LAYER_COUNT:130
;LAYER:0
M107
G1 F300 Z0.4
G0 F6000 X93.618 Y84.302 Z0.4
;TYPE:SKIRT
G1 F300 Z0.2
G1 F1500 E0
G1 F1200 X94.314 Y83.607 E0.04907
G1 X95.064 Y82.971 E0.09813
G1 X95.863 Y82.397 E0.14721
G1 X96.706 Y81.891 E0.19627
G1 X97.588 Y81.455 E0.24535
G1 X98.502 Y81.092 E0.29442
G1 X99.443 Y80.804 E0.34351
G1 X100.404 Y80.594 E0.39259
G1 X101.379 Y80.462 E0.44167
G1 X102.17 Y80.414 E0.48121
G1 X102.491 Y80.405 E0.49723
G1 X102.83 Y80.4 E0.51415
G1 X121.793 Y80.4 E1.46021
G1 X122.664 Y80.411 E1.50367
G1 X123.647 Y80.465 E1.55279
G1 X124.621 Y80.599 E1.60184
G1 X125.582 Y80.811 E1.65094
G1 X126.522 Y81.101 E1.70001
G1 X127.435 Y81.466 E1.74907
G1 X128.316 Y81.904 E1.79815
G1 X129.158 Y82.412 E1.84722
G1 X129.956 Y82.987 E1.89629
G1 X130.705 Y83.625 E1.94537
G1 X131.4 Y84.322 E1.99448
G1 X132.035 Y85.072 E2.04351
G1 X132.608 Y85.872 E2.0926
G1 X133.114 Y86.716 E2.1417
G1 X133.549 Y87.598 E2.19076
G1 X133.912 Y88.512 E2.23982
G1 X134.199 Y89.453 E2.28891
G1 X134.408 Y90.414 E2.33797
G1 X134.539 Y91.389 E2.38705
G1 X134.586 Y92.17 E2.42609
G1 X134.595 Y92.49 E2.44206
G1 X134.6 Y92.83 E2.45902
G1 X134.599 Y131.914 E4.40893
G1 X134.59 Y132.641 E4.4452
G1 X134.538 Y133.623 E4.49426
G1 X134.406 Y134.598 E4.54335
G1 X134.196 Y135.559 E4.59243
G1 X133.908 Y136.499 E4.64147
G1 X133.544 Y137.413 E4.69056
G1 X133.108 Y138.295 E4.73964
G1 X132.602 Y139.138 E4.7887
G1 X132.028 Y139.938 E4.83782
G1 X131.392 Y140.688 E4.88688
G1 X130.697 Y141.384 E4.93595
G1 X129.947 Y142.021 E4.98504
G1 X129.148 Y142.595 E5.03412
G1 X128.306 Y143.102 E5.08316
G1 X127.425 Y143.539 E5.13222
G1 X126.511 Y143.904 E5.18132
G1 X125.571 Y144.193 E5.23039
G1 X124.61 Y144.404 E5.27947
G1 X123.635 Y144.537 E5.32857
G1 X122.83 Y144.586 E5.3688
G1 X122.509 Y144.595 E5.38482
G1 X122.17 Y144.6 E5.40174
G1 X103.051 Y144.599 E6.35559
G1 X102.353 Y144.59 E6.39042
G1 X101.371 Y144.537 E6.43948
G1 X100.396 Y144.405 E6.48857
G1 X99.435 Y144.194 E6.53765
G1 X98.495 Y143.906 E6.5867
G1 X97.581 Y143.542 E6.63578
G1 X96.699 Y143.105 E6.68489
G1 X95.857 Y142.598 E6.73393
G1 X95.058 Y142.024 E6.78301
G1 X94.308 Y141.388 E6.83207
G1 X93.612 Y140.692 E6.88118
G1 X92.975 Y139.942 E6.93027
G1 X92.402 Y139.143 E6.97932
G1 X91.895 Y138.3 E7.0284
G1 X91.458 Y137.419 E7.07746
G1 X91.094 Y136.505 E7.12655
G1 X90.806 Y135.565 E7.17559
G1 X90.595 Y134.604 E7.22468
G1 X90.463 Y133.629 E7.27377
G1 X90.413 Y132.818 E7.31431
G1 X90.404 Y132.485 E7.33092
G1 X90.4 Y132.158 E7.34724
G1 X90.401 Y93.01 E9.30034
G1 X90.41 Y92.345 E9.33352
G1 X90.463 Y91.363 E9.38259
G1 X90.596 Y90.388 E9.43168
G1 X90.808 Y89.428 E9.48073
G1 X91.097 Y88.487 E9.52984
G1 X91.461 Y87.574 E9.57887
G1 X91.899 Y86.693 E9.62796
G1 X92.406 Y85.85 E9.67704
G1 X92.98 Y85.051 E9.72612
G1 X93.618 Y84.302 E9.77521
G0 F6000 X94.207 Y84.551
G1 F1200 X94.899 Y83.887 E9.82305
G1 X95.644 Y83.283 E9.8709
G1 X96.436 Y82.743 E9.91873
G1 X97.271 Y82.271 E9.96658
G1 X98.142 Y81.87 E10.01442
G1 X99.044 Y81.544 E10.06227
G1 X99.969 Y81.293 E10.11008
G1 X100.913 Y81.12 E10.15797
G1 X102.187 Y81.014 E10.22175
G1 X102.508 Y81.005 E10.23777
G1 X102.83 Y81 E10.25383
G1 X121.793 Y81 E11.1999
G1 X122.656 Y81.011 E11.24296
G1 X123.613 Y81.065 E11.29078
G1 X124.563 Y81.198 E11.33864
G1 X125.498 Y81.41 E11.38647
G1 X126.412 Y81.699 E11.43429
G1 X127.299 Y82.064 E11.48215
G1 X128.153 Y82.5 E11.52999
G1 X128.967 Y83.007 E11.57783
G1 X129.737 Y83.58 E11.62571
G1 X130.455 Y84.214 E11.6735
G1 X131.119 Y84.907 E11.72138
G1 X131.722 Y85.652 E11.7692
G1 X132.262 Y86.445 E11.81707
G1 X132.733 Y87.28 E11.86489
G1 X133.133 Y88.152 E11.91276
G1 X133.459 Y89.053 E11.96056
G1 X133.709 Y89.979 E12.00841
G1 X133.881 Y90.923 E12.05628
G1 X133.986 Y92.187 E12.11956
G1 X133.995 Y92.507 E12.13553
G1 X134 Y92.83 E12.15165
G1 X133.999 Y131.906 E14.10116
G1 X133.99 Y132.633 E14.13743
G1 X133.938 Y133.591 E14.1853
G1 X133.807 Y134.541 E14.23314
G1 X133.597 Y135.476 E14.28095
G1 X133.309 Y136.391 E14.32881
G1 X132.947 Y137.279 E14.37665
G1 X132.512 Y138.134 E14.42451
G1 X132.007 Y138.949 E14.47234
G1 X131.435 Y139.719 E14.5202
G1 X130.802 Y140.439 E14.56803
G1 X130.111 Y141.104 E14.61587
G1 X129.367 Y141.709 E14.66372
G1 X128.575 Y142.25 E14.71157
G1 X127.741 Y142.723 E14.7594
G1 X126.87 Y143.125 E14.80726
G1 X125.969 Y143.452 E14.85508
G1 X125.044 Y143.704 E14.90291
G1 X124.1 Y143.878 E14.9508
G1 X122.813 Y143.986 E15.01524
G1 X122.492 Y143.995 E15.03126
G1 X122.17 Y144 E15.04732
G1 X103.059 Y143.999 E16.00078
G1 X102.361 Y143.99 E16.0356
G1 X101.403 Y143.938 E16.08347
G1 X100.453 Y143.806 E16.13132
G1 X99.518 Y143.595 E16.17914
G1 X98.603 Y143.307 E16.227
G1 X97.715 Y142.944 E16.27486
G1 X96.861 Y142.509 E16.32267
G1 X96.046 Y142.003 E16.37053
G1 X95.276 Y141.432 E16.41836
G1 X94.556 Y140.798 E16.46622
G1 X93.892 Y140.107 E16.51403
G1 X93.287 Y139.362 E16.56191
G1 X92.747 Y138.57 E16.60973
G1 X92.275 Y137.736 E16.65754
G1 X91.873 Y136.865 E16.7054
G1 X91.546 Y135.963 E16.75327
G1 X91.295 Y135.038 E16.80109
G1 X91.121 Y134.095 E16.84893
G1 X91.013 Y132.802 E16.91366
G1 X91.004 Y132.469 E16.93028
G1 X91 Y132.158 E16.9458
G1 X91.001 Y93.018 E18.8985
G1 X91.01 Y92.353 E18.93168
G1 X91.063 Y91.396 E18.9795
G1 X91.196 Y90.446 E19.02736
G1 X91.407 Y89.511 E19.07518
G1 X91.695 Y88.596 E19.12303
G1 X92.059 Y87.709 E19.17087
G1 X92.495 Y86.855 E19.2187
G1 X93.001 Y86.04 E19.26656
G1 X93.573 Y85.27 E19.31442
G1 X94.207 Y84.551 E19.36224
G0 F6000 X94.796 Y84.807
G1 F1200 X95.483 Y84.176 E19.40878
G1 X96.222 Y83.605 E19.45537
G1 X97.007 Y83.1 E19.50194
G1 X97.832 Y82.663 E19.54852
G1 X98.692 Y82.299 E19.59511
G1 X99.58 Y82.01 E19.6417
G1 X100.489 Y81.798 E19.68827
G1 X101.413 Y81.664 E19.73485
G1 X102.204 Y81.613 E19.77439
G1 X102.525 Y81.604 E19.79041
G1 X102.83 Y81.6 E19.80563
G1 X121.793 Y81.6 E20.7517
G1 X122.647 Y81.611 E20.79431
G1 X123.579 Y81.664 E20.84088
G1 X124.503 Y81.797 E20.88746
G1 X125.413 Y82.009 E20.93407
G1 X126.301 Y82.297 E20.98065
G1 X127.16 Y82.661 E21.02719
G1 X127.986 Y83.097 E21.07379
G1 X128.772 Y83.601 E21.12037
G1 X129.511 Y84.171 E21.16693
G1 X130.199 Y84.803 E21.21354
G1 X130.83 Y85.491 E21.26012
G1 X131.4 Y86.23 E21.30668
G1 X131.905 Y87.015 E21.35325
G1 X132.34 Y87.841 E21.39982
G1 X132.704 Y88.701 E21.44641
G1 X132.992 Y89.589 E21.49299
G1 X133.204 Y90.498 E21.53955
G1 X133.337 Y91.422 E21.58613
G1 X133.387 Y92.204 E21.62522
G1 X133.396 Y92.524 E21.64119
G1 X133.4 Y92.83 E21.65646
G1 X133.399 Y131.899 E23.60562
G1 X133.39 Y132.626 E23.64189
G1 X133.339 Y133.558 E23.68846
G1 X133.208 Y134.482 E23.73502
G1 X132.998 Y135.392 E23.78161
G1 X132.711 Y136.281 E23.82822
G1 X132.349 Y137.141 E23.87477
G1 X131.915 Y137.968 E23.92137
G1 X131.412 Y138.754 E23.96792
G1 X130.843 Y139.495 E24.01453
G1 X130.213 Y140.184 E24.06111
G1 X129.527 Y140.816 E24.10765
G1 X128.788 Y141.388 E24.15427
G1 X128.004 Y141.894 E24.20082
G1 X127.179 Y142.331 E24.2474
G1 X126.32 Y142.696 E24.29396
G1 X125.433 Y142.987 E24.34054
G1 X124.524 Y143.2 E24.38711
G1 X123.6 Y143.334 E24.43369
G1 X122.796 Y143.387 E24.47389
G1 X122.475 Y143.396 E24.48991
G1 X122.17 Y143.4 E24.50513
G1 X103.066 Y143.399 E25.45824
G1 X102.368 Y143.39 E25.49306
G1 X101.436 Y143.338 E25.53963
G1 X100.512 Y143.207 E25.58619
G1 X99.602 Y142.996 E25.6328
G1 X98.714 Y142.709 E25.67935
G1 X97.854 Y142.347 E25.72591
G1 X97.027 Y141.912 E25.77252
G1 X96.241 Y141.409 E25.81908
G1 X95.501 Y140.84 E25.86565
G1 X94.812 Y140.209 E25.91226
G1 X94.18 Y139.522 E25.95883
G1 X93.609 Y138.784 E26.00539
G1 X93.103 Y137.999 E26.05198
G1 X92.666 Y137.174 E26.09856
G1 X92.302 Y136.315 E26.1451
G1 X92.012 Y135.427 E26.19171
G1 X91.799 Y134.518 E26.23829
G1 X91.665 Y133.594 E26.28487
G1 X91.613 Y132.785 E26.32531
G1 X91.604 Y132.452 E26.34193
G1 X91.6 Y132.158 E26.3566
G1 X91.601 Y93.026 E28.30891
G1 X91.61 Y92.361 E28.34209
G1 X91.663 Y91.429 E28.38866
G1 X91.795 Y90.505 E28.43522
G1 X92.006 Y89.596 E28.48178
G1 X92.293 Y88.708 E28.52834
G1 X92.656 Y87.847 E28.57496
G1 X93.091 Y87.021 E28.62153
G1 X93.595 Y86.236 E28.66807
G1 X94.165 Y85.496 E28.71467
G1 X94.796 Y84.807 E28.76128
G0 F6000 X94.756 Y85.728
G1 F1200 X95.383 Y85.072 E28.80656
G1 X96.065 Y84.473 E28.85184
G1 X96.798 Y83.937 E28.89715
G1 X97.574 Y83.468 E28.94238
G1 X98.389 Y83.069 E28.98765
G1 X99.236 Y82.743 E29.03293
G1 X100.109 Y82.493 E29.07824
G1 X101 Y82.32 E29.12352
G1 X102.22 Y82.213 E29.18462
G1 X102.541 Y82.204 E29.20064
G1 X102.83 Y82.2 E29.21506
G1 X121.793 Y82.2 E30.16113
G1 X122.639 Y82.211 E30.20334
G1 X123.545 Y82.264 E30.24862
G1 X124.442 Y82.397 E30.29386
G1 X125.325 Y82.608 E30.33915
G1 X126.186 Y82.895 E30.38443
G1 X127.018 Y83.258 E30.42972
G1 X127.814 Y83.692 E30.47495
G1 X128.57 Y84.195 E30.52025
G1 X129.278 Y84.763 E30.56554
G1 X129.934 Y85.39 E30.61081
G1 X130.532 Y86.073 E30.6561
G1 X131.067 Y86.806 E30.70137
G1 X131.536 Y87.583 E30.74665
G1 X131.935 Y88.398 E30.79192
G1 X132.26 Y89.245 E30.83719
G1 X132.509 Y90.118 E30.88248
G1 X132.681 Y91.009 E30.92775
G1 X132.787 Y92.22 E30.9884
G1 X132.796 Y92.54 E31.00437
G1 X132.8 Y92.83 E31.01884
G1 X132.799 Y131.892 E32.96765
G1 X132.79 Y132.619 E33.00392
G1 X132.739 Y133.525 E33.04919
G1 X132.608 Y134.423 E33.09447
G1 X132.399 Y135.306 E33.13974
G1 X132.113 Y136.167 E33.185
G1 X131.752 Y137 E33.2303
G1 X131.319 Y137.797 E33.27555
G1 X130.818 Y138.554 E33.32084
G1 X130.252 Y139.263 E33.3661
G1 X129.625 Y139.92 E33.41141
G1 X128.944 Y140.519 E33.45666
G1 X128.212 Y141.056 E33.50195
G1 X127.436 Y141.526 E33.54721
G1 X126.621 Y141.927 E33.59253
G1 X125.775 Y142.253 E33.63776
G1 X124.903 Y142.505 E33.68304
G1 X124.012 Y142.678 E33.72833
G1 X122.78 Y142.787 E33.79003
G1 X122.459 Y142.796 E33.80605
G1 X122.17 Y142.8 E33.82047
G1 X103.074 Y142.799 E34.77317
G1 X102.376 Y142.79 E34.808
G1 X101.47 Y142.738 E34.85328
G1 X100.572 Y142.607 E34.89855
G1 X99.689 Y142.398 E34.94382
G1 X98.828 Y142.111 E34.9891
G1 X97.996 Y141.749 E35.03437
G1 X97.198 Y141.316 E35.07966
G1 X96.442 Y140.815 E35.12491
G1 X95.733 Y140.248 E35.1702
G1 X95.076 Y139.622 E35.21548
G1 X94.478 Y138.94 E35.26073
G1 X93.941 Y138.208 E35.30602
G1 X93.471 Y137.431 E35.35133
G1 X93.071 Y136.617 E35.39658
G1 X92.745 Y135.77 E35.44186
G1 X92.494 Y134.898 E35.48713
G1 X92.321 Y134.007 E35.53241
G1 X92.213 Y132.769 E35.59441
G1 X92.204 Y132.436 E35.61103
G1 X92.2 Y132.158 E35.6249
G1 X92.201 Y93.035 E37.57675
G1 X92.21 Y92.37 E37.60993
G1 X92.262 Y91.464 E37.65521
G1 X92.394 Y90.566 E37.70049
G1 X92.604 Y89.683 E37.74577
G1 X92.892 Y88.822 E37.79107
G1 X93.253 Y87.99 E37.83631
G1 X93.687 Y87.193 E37.88159
G1 X94.189 Y86.437 E37.92686
G1 X94.756 Y85.728 E37.97216
G1 F1500 E31.97216
G1 F300 Z0.4
;MESH:Stringing_Test.stl
G0 F6000 X121 Y131 Z0.4
;TYPE:WALL-INNER
G1 F300 Z0.2
G1 F1500 E37.97216
G1 F1200 X104 Y131 E38.82029
G1 X104 Y94 E40.66623
G1 X121 Y94 E41.51436
G1 X121 Y131 E43.3603
G0 F6000 X121.6 Y131.6
G1 F1200 X103.4 Y131.6 E44.2683
G1 X103.4 Y93.4 E46.17411
G1 X121.6 Y93.4 E47.08211
G1 X121.6 Y131.6 E48.98791
G0 F6000 X122.2 Y132.2
;TYPE:WALL-OUTER
G1 F1200 X102.8 Y132.2 E49.95578
G1 X102.8 Y92.8 E51.92146
G1 X122.2 Y92.8 E52.88933
G1 X122.2 Y132.2 E54.855
G1 F1500 E48.855
G1 F300 Z0.4
G0 F6000 X112.6 Y122.6 Z0.4
;TYPE:SKIN
G1 F300 Z0.2
G1 F1500 E54.855
G1 F1200 X112.4 Y122.6 E54.86498
G1 X112.4 Y102.4 E55.87276
G1 X112.6 Y102.4 E55.88274
G1 X112.6 Y122.6 E56.89052
G0 F6000 X113.2 Y123.2
G1 F1200 X111.8 Y123.2 E56.96037
G1 X111.8 Y101.8 E58.02802
G1 X113.2 Y101.8 E58.09786
G1 X113.2 Y123.2 E59.16552
G0 F6000 X113.8 Y123.8
G1 F1200 X111.2 Y123.8 E59.29523
G1 X111.2 Y101.2 E60.42275
G1 X113.8 Y101.2 E60.55246
G1 X113.8 Y123.8 E61.67998
G0 F6000 X114.4 Y124.4
G1 F1200 X110.6 Y124.4 E61.86956
G1 X110.6 Y100.6 E63.05695
G1 X114.4 Y100.6 E63.24653
G1 X114.4 Y124.4 E64.43392
G0 F6000 X115 Y125
G1 F1200 X110 Y125 E64.68337
G1 X110 Y100 E65.93063
G1 X115 Y100 E66.18008
G1 X115 Y125 E67.42733
G0 F6000 X115.6 Y125.6
G1 F1200 X109.4 Y125.6 E67.73665
G1 X109.4 Y99.4 E69.04378
G1 X115.6 Y99.4 E69.35309
G1 X115.6 Y125.6 E70.66022
G0 F6000 X116.2 Y126.2
G1 F1200 X108.8 Y126.2 E71.02941
G1 X108.8 Y98.8 E72.3964
G1 X116.2 Y98.8 E72.76558
G1 X116.2 Y126.2 E74.13258
G0 F6000 X116.8 Y126.8
G1 F1200 X108.2 Y126.8 E74.56163
G1 X108.2 Y98.2 E75.98849
G1 X116.8 Y98.2 E76.41755
G1 X116.8 Y126.8 E77.84441
G0 F6000 X117.4 Y127.4
G1 F1200 X107.6 Y127.4 E78.33333
G1 X107.6 Y97.6 E79.82006
G1 X117.4 Y97.6 E80.30898
G1 X117.4 Y127.4 E81.79571
G0 F6000 X118 Y128
G1 F1200 X107 Y128 E82.3445
G1 X107 Y97 E83.8911
G1 X118 Y97 E84.43989
G1 X118 Y128 E85.98649
G0 F6000 X118.6 Y128.6
G1 F1200 X106.4 Y128.6 E86.59515
G1 X106.4 Y96.4 E88.20161
G1 X118.6 Y96.4 E88.81027
G1 X118.6 Y128.6 E90.41674
G0 F6000 X119.2 Y129.2
G1 F1200 X105.8 Y129.2 E91.08527
G1 X105.8 Y95.8 E92.7516
G1 X119.2 Y95.8 E93.42013
G1 X119.2 Y129.2 E95.08646
G0 F6000 X119.8 Y129.8
G1 F1200 X105.2 Y129.8 E95.81486
G1 X105.2 Y95.2 E97.54106
G1 X119.8 Y95.2 E98.26946
G1 X119.8 Y129.8 E99.99566
G0 F6000 X120.4 Y130.4
G1 F1200 X104.6 Y130.4 E100.78392
G1 X104.6 Y94.6 E102.56999
G1 X120.4 Y94.6 E103.35826
G1 X120.4 Y130.4 E105.14433
G1 F1500 E99.14433
G1 F300 Z0.4
;MESH:NONMESH
G0 F6000 X121.5 Y131.5 Z0.4
;TIME_ELAPSED:114.256614
;LAYER:1
M106 S85
;TYPE:WALL-INNER
;MESH:Stringing_Test.stl
G1 F300 Z0.4
G1 F1500 E105.14433
G1 X103.5 Y131.5 E105.74301
G1 X103.5 Y93.5 E107.00689
G1 X121.5 Y93.5 E107.60558
G1 X121.5 Y131.5 E108.86946
G0 F7500 X121.9 Y131.9
G1 F1500 X103.1 Y131.9 E109.49475
G1 X103.1 Y93.1 E110.78524
G1 X121.9 Y93.1 E111.41054
G1 X121.9 Y131.9 E112.70103
G0 F7500 X122.3 Y132.3
;TYPE:WALL-OUTER
G1 F1500 X102.7 Y132.3 E113.35293
G1 X102.7 Y92.7 E114.67003
G1 X122.3 Y92.7 E115.32193
G1 X122.3 Y132.3 E116.63903
G1 F1500 E110.63903
G1 F300 Z0.6
G0 F7500 X112.7 Y122.7 Z0.6
;TYPE:SKIN
G1 F300 Z0.4
G1 F1500 E116.63903
G1 X112.3 Y122.7 E116.65233
G1 X112.3 Y102.3 E117.33084
G1 X112.7 Y102.3 E117.34414
G1 X112.7 Y122.7 E118.02265
G0 F7500 X113.1 Y123.1
G1 F1500 X111.9 Y123.1 E118.06256
G1 X111.9 Y101.9 E118.76768
G1 X113.1 Y101.9 E118.80759
G1 X113.1 Y123.1 E119.5127
G0 F7500 X113.5 Y123.5
G1 F1500 X111.5 Y123.5 E119.57922
G1 X111.5 Y101.5 E120.31095
G1 X113.5 Y101.5 E120.37747
G1 X113.5 Y123.5 E121.10919
G0 F7500 X113.9 Y123.9
G1 F1500 X111.1 Y123.9 E121.20232
G1 X111.1 Y101.1 E121.96065
G1 X113.9 Y101.1 E122.05378
G1 X113.9 Y123.9 E122.81211
G0 F7500 X114.3 Y124.3
G1 F1500 X110.7 Y124.3 E122.93185
G1 X110.7 Y100.7 E123.71679
G1 X114.3 Y100.7 E123.83652
G1 X114.3 Y124.3 E124.62146
G0 F7500 X114.7 Y124.7
G1 F1500 X110.3 Y124.7 E124.76781
G1 X110.3 Y100.3 E125.57935
G1 X114.7 Y100.3 E125.7257
G1 X114.7 Y124.7 E126.53724
G0 F7500 X115.1 Y125.1
G1 F1500 X109.9 Y125.1 E126.7102
G1 X109.9 Y99.9 E127.54835
G1 X115.1 Y99.9 E127.72131
G1 X115.1 Y125.1 E128.55946
G0 F7500 X115.5 Y125.5
G1 F1500 X109.5 Y125.5 E128.75902
G1 X109.5 Y99.5 E129.62379
G1 X115.5 Y99.5 E129.82335
G1 X115.5 Y125.5 E130.68811
G0 F7500 X115.9 Y125.9
G1 F1500 X109.1 Y125.9 E130.91428
G1 X109.1 Y99.1 E131.80565
G1 X115.9 Y99.1 E132.03182
G1 X115.9 Y125.9 E132.92319
G0 F7500 X116.3 Y126.3
G1 F1500 X108.7 Y126.3 E133.17597
G1 X108.7 Y98.7 E134.09395
G1 X116.3 Y98.7 E134.34672
G1 X116.3 Y126.3 E135.2647
G0 F7500 X116.7 Y126.7
G1 F1500 X108.3 Y126.7 E135.54409
G1 X108.3 Y98.3 E136.48868
G1 X116.7 Y98.3 E136.76806
G1 X116.7 Y126.7 E137.71265
G0 F7500 X117.1 Y127.1
G1 F1500 X107.9 Y127.1 E138.01864
G1 X107.9 Y97.9 E138.98984
G1 X117.1 Y97.9 E139.29583
G1 X117.1 Y127.1 E140.26703
G0 F7500 X117.5 Y127.5
G1 F1500 X107.5 Y127.5 E140.59963
