;FLAVOR:Marlin
;TIME:1719
;Filament used: 0.779438m
;Layer height: 0.16
;MINX:89.2
;MINY:79.2
;MINZ:0.2
;MAXX:135.8
;MAXY:145.8
;MAXZ:25.6
;Generated with Creality Slicer 4.8.2-205
M140 S70
M105
M190 S70
M104 S215
M105
M109 S215
M82 ;absolute extrusion mode

G28 ;Home

G92 E0 ;Reset Extruder
G1 Z2.0 F3000 ;Move Z Axis up
G1 X10.1 Y20 Z0.28 F5000.0 ;Move to start position
G1 X10.1 Y200.0 Z0.28 F1500.0 E15 ;Draw the first line
G1 X10.4 Y200.0 Z0.28 F5000.0 ;Move to side a little
G1 X10.4 Y20 Z0.28 F1500.0 E30 ;Draw the second line
G92 E0 ;Reset Extruder
G1 Z2.0 F3000 ;Move Z Axis up

G92 E0
G92 E0
G1 F1500 E-5
;LAYER_COUNT:130
;LAYER:0
M107
G0 F6000 X92.437 Y83.824 Z0.2
;TYPE:SKIRT
G1 F1500 E0
G1 F1200 X93.14 Y83.069 E0.05147
G1 X93.899 Y82.372 E0.10288
G1 X94.711 Y81.735 E0.15437
G1 X95.569 Y81.163 E0.20581
G1 X96.469 Y80.66 E0.25725
G1 X97.405 Y80.227 E0.3087
G1 X98.372 Y79.869 E0.36015
G1 X99.364 Y79.586 E0.41161
G1 X100.375 Y79.381 E0.46308
G1 X101.398 Y79.255 E0.5145
G1 X102.136 Y79.214 E0.55138
G1 X102.457 Y79.205 E0.5674
G1 X102.83 Y79.2 E0.58601
G1 X121.793 Y79.2 E1.53208
G1 X122.682 Y79.211 E1.57643
G1 X123.711 Y79.266 E1.62784
G1 X124.734 Y79.4 E1.67932
G1 X125.743 Y79.614 E1.73078
G1 X126.732 Y79.904 E1.78219
G1 X127.696 Y80.271 E1.83366
G1 X128.629 Y80.711 E1.88512
G1 X129.525 Y81.222 E1.93658
G1 X130.378 Y81.801 E1.98801
G1 X131.184 Y82.444 E2.03945
G1 X131.938 Y83.148 E2.09092
G1 X132.635 Y83.908 E2.14237
G1 X133.271 Y84.72 E2.19383
G1 X133.842 Y85.579 E2.24529
G1 X134.345 Y86.479 E2.29672
G1 X134.777 Y87.416 E2.3482
G1 X135.135 Y88.383 E2.39964
G1 X135.416 Y89.375 E2.45108
G1 X135.62 Y90.386 E2.50254
G1 X135.745 Y91.41 E2.554
G1 X135.786 Y92.136 E2.59028
G1 X135.795 Y92.456 E2.60625
G1 X135.8 Y92.83 E2.62491
G1 X135.799 Y131.929 E4.57557
G1 X135.79 Y132.656 E4.61184
G1 X135.737 Y133.686 E4.6633
G1 X135.605 Y134.708 E4.71471
G1 X135.394 Y135.718 E4.76619
G1 X135.105 Y136.708 E4.81764
G1 X134.74 Y137.673 E4.86911
G1 X134.302 Y138.606 E4.92053
G1 X133.793 Y139.503 E4.97199
G1 X133.215 Y140.357 E5.02344
G1 X132.573 Y141.165 E5.07492
G1 X131.871 Y141.92 E5.12636
G1 X131.112 Y142.618 E5.1778
G1 X130.302 Y143.256 E5.22924
G1 X129.444 Y143.829 E5.28072
G1 X128.545 Y144.333 E5.33214
G1 X127.609 Y144.767 E5.38361
G1 X126.642 Y145.127 E5.43509
G1 X125.651 Y145.41 E5.4865
G1 X124.64 Y145.616 E5.53798
G1 X123.617 Y145.743 E5.58941
G1 X122.864 Y145.786 E5.62704
G1 X122.543 Y145.795 E5.64306
G1 X122.17 Y145.8 E5.66167
G1 X103.036 Y145.799 E6.61627
G1 X102.338 Y145.79 E6.65109
G1 X101.308 Y145.737 E6.70255
G1 X100.285 Y145.604 E6.75402
G1 X99.276 Y145.392 E6.80546
G1 X98.286 Y145.103 E6.85691
G1 X97.321 Y144.737 E6.9084
G1 X96.388 Y144.299 E6.95982
G1 X95.491 Y143.789 E7.0113
G1 X94.637 Y143.211 E7.06275
G1 X93.83 Y142.569 E7.11419
G1 X93.075 Y141.866 E7.16566
G1 X92.377 Y141.107 E7.21711
G1 X91.74 Y140.296 E7.26856
G1 X91.168 Y139.438 E7.32
G1 X90.663 Y138.539 E7.37145
G1 X90.23 Y137.603 E7.4229
G1 X89.871 Y136.636 E7.47436
G1 X89.588 Y135.644 E7.52582
G1 X89.383 Y134.634 E7.57724
G1 X89.256 Y133.61 E7.62872
G1 X89.214 Y132.85 E7.66669
G1 X89.205 Y132.517 E7.68331
G1 X89.2 Y132.158 E7.70123
G1 X89.201 Y92.994 E9.65513
G1 X89.21 Y92.329 E9.68831
G1 X89.264 Y91.299 E9.73976
G1 X89.398 Y90.276 E9.79124
G1 X89.61 Y89.267 E9.84268
G1 X89.9 Y88.278 E9.89409
G1 X90.266 Y87.313 E9.94558
G1 X90.705 Y86.38 E9.99703
G1 X91.216 Y85.484 E10.04849
G1 X91.794 Y84.63 E10.09994
G1 X92.437 Y83.824 E10.15138
G0 F6000 X93.027 Y84.06
G1 F1200 X93.727 Y83.335 E10.20165
G1 X94.482 Y82.667 E10.25195
G1 X95.288 Y82.062 E10.30223
G1 X96.139 Y81.522 E10.35251
G1 X97.03 Y81.052 E10.40277
G1 X97.956 Y80.653 E10.45307
G1 X98.91 Y80.33 E10.50332
G1 X99.887 Y80.083 E10.5536
G1 X100.881 Y79.914 E10.6039
G1 X102.153 Y79.814 E10.66756
G1 X102.474 Y79.805 E10.68358
G1 X102.83 Y79.8 E10.70134
G1 X121.793 Y79.8 E11.64741
G1 X122.673 Y79.811 E11.69131
G1 X123.679 Y79.866 E11.74158
G1 X124.678 Y80 E11.79187
G1 X125.663 Y80.213 E11.84214
G1 X126.628 Y80.503 E11.89241
G1 X127.567 Y80.869 E11.94269
G1 X128.474 Y81.308 E11.99297
G1 X129.344 Y81.817 E12.04325
G1 X130.17 Y82.394 E12.09352
G1 X130.948 Y83.035 E12.14381
G1 X131.672 Y83.735 E12.19406
G1 X132.339 Y84.491 E12.24435
G1 X132.944 Y85.297 E12.29463
G1 X133.483 Y86.149 E12.34493
G1 X133.953 Y87.04 E12.39519
G1 X134.35 Y87.966 E12.44545
G1 X134.673 Y88.921 E12.49575
G1 X134.92 Y89.898 E12.54603
G1 X135.087 Y90.892 E12.59631
G1 X135.186 Y92.153 E12.65942
G1 X135.195 Y92.473 E12.67539
G1 X135.2 Y92.83 E12.6932
G1 X135.199 Y131.921 E14.64346
G1 X135.19 Y132.648 E14.67973
G1 X135.138 Y133.655 E14.73004
G1 X135.006 Y134.654 E14.78031
G1 X134.795 Y135.639 E14.83057
G1 X134.506 Y136.605 E14.88087
G1 X134.142 Y137.545 E14.93116
G1 X133.705 Y138.452 E14.98139
G1 X133.197 Y139.323 E15.0317
G1 X132.622 Y140.15 E15.08195
G1 X131.982 Y140.929 E15.13225
G1 X131.283 Y141.655 E15.18253
G1 X130.529 Y142.324 E15.23282
G1 X129.724 Y142.93 E15.28309
G1 X128.874 Y143.471 E15.33335
G1 X127.983 Y143.942 E15.38364
G1 X127.058 Y144.342 E15.43391
G1 X126.104 Y144.666 E15.48418
G1 X125.127 Y144.914 E15.53447
G1 X124.134 Y145.084 E15.58473
G1 X122.847 Y145.186 E15.64914
G1 X122.526 Y145.195 E15.66516
G1 X122.17 Y145.2 E15.68292
G1 X103.043 Y145.199 E16.63717
G1 X102.345 Y145.19 E16.672
G1 X101.339 Y145.137 E16.72226
G1 X100.34 Y145.004 E16.77254
G1 X99.355 Y144.793 E16.8228
G1 X98.389 Y144.504 E16.8731
G1 X97.449 Y144.14 E16.92339
G1 X96.542 Y143.702 E16.97364
G1 X95.672 Y143.193 E17.02393
G1 X94.845 Y142.618 E17.07418
G1 X94.066 Y141.978 E17.12448
G1 X93.34 Y141.279 E17.17476
G1 X92.672 Y140.524 E17.22505
G1 X92.066 Y139.719 E17.27532
G1 X91.526 Y138.868 E17.3256
G1 X91.055 Y137.977 E17.37589
G1 X90.656 Y137.052 E17.42614
G1 X90.332 Y136.097 E17.47646
G1 X90.084 Y135.121 E17.5267
G1 X89.915 Y134.127 E17.577
G1 X89.814 Y132.834 E17.6417
G1 X89.805 Y132.501 E17.65832
G1 X89.8 Y132.158 E17.67544
G1 X89.801 Y93.002 E19.62894
G1 X89.81 Y92.337 E19.66212
G1 X89.864 Y91.331 E19.71238
G1 X89.997 Y90.332 E19.76266
G1 X90.209 Y89.347 E19.81293
G1 X90.498 Y88.381 E19.86323
G1 X90.864 Y87.442 E19.91351
G1 X91.302 Y86.535 E19.96376
G1 X91.811 Y85.665 E20.01405
G1 X92.387 Y84.838 E20.06433
G1 X93.027 Y84.06 E20.11459
G0 F6000 X93.618 Y84.302
G1 F1200 X94.314 Y83.607 E20.16366
G1 X95.064 Y82.971 E20.21272
G1 X95.863 Y82.397 E20.2618
G1 X96.706 Y81.891 E20.31086
G1 X97.588 Y81.455 E20.35994
G1 X98.502 Y81.092 E20.40901
G1 X99.443 Y80.804 E20.4581
G1 X100.404 Y80.594 E20.50718
G1 X101.379 Y80.462 E20.55626
G1 X102.17 Y80.414 E20.5958
G1 X102.491 Y80.405 E20.61182
G1 X102.83 Y80.4 E20.62874
G1 X121.793 Y80.4 E21.5748
G1 X122.664 Y80.411 E21.61826
G1 X123.647 Y80.465 E21.66738
G1 X124.621 Y80.599 E21.71643
G1 X125.582 Y80.811 E21.76553
G1 X126.522 Y81.101 E21.8146
G1 X127.435 Y81.466 E21.86366
G1 X128.316 Y81.904 E21.91274
G1 X129.158 Y82.412 E21.9618
G1 X129.956 Y82.987 E22.01088
G1 X130.705 Y83.625 E22.05996
G1 X131.4 Y84.322 E22.10907
G1 X132.035 Y85.072 E22.1581
G1 X132.608 Y85.872 E22.20719
G1 X133.114 Y86.716 E22.25629
G1 X133.549 Y87.598 E22.30535
G1 X133.912 Y88.512 E22.35441
G1 X134.199 Y89.453 E22.4035
G1 X134.408 Y90.414 E22.45256
G1 X134.539 Y91.389 E22.50164
G1 X134.586 Y92.17 E22.54068
G1 X134.595 Y92.49 E22.55665
G1 X134.6 Y92.83 E22.57361
G1 X134.599 Y131.914 E24.52352
G1 X134.59 Y132.641 E24.55979
G1 X134.538 Y133.623 E24.60885
G1 X134.406 Y134.598 E24.65794
G1 X134.196 Y135.559 E24.70702
G1 X133.908 Y136.499 E24.75606
G1 X133.544 Y137.413 E24.80515
G1 X133.108 Y138.295 E24.85423
G1 X132.602 Y139.138 E24.90329
G1 X132.028 Y139.938 E24.95241
G1 X131.392 Y140.688 E25.00147
G1 X130.697 Y141.384 E25.05054
G1 X129.947 Y142.021 E25.09963
G1 X129.148 Y142.595 E25.14871
G1 X128.306 Y143.102 E25.19775
G1 X127.425 Y143.539 E25.24681
G1 X126.511 Y143.904 E25.29591
G1 X125.571 Y144.193 E25.34498
G1 X124.61 Y144.404 E25.39406
G1 X123.635 Y144.537 E25.44316
G1 X122.83 Y144.586 E25.48339
G1 X122.509 Y144.595 E25.49941
G1 X122.17 Y144.6 E25.51633
G1 X103.051 Y144.599 E26.47018
G1 X102.353 Y144.59 E26.50501
G1 X101.371 Y144.537 E26.55407
G1 X100.396 Y144.405 E26.60316
G1 X99.435 Y144.194 E26.65224
G1 X98.495 Y143.906 E26.70129
G1 X97.581 Y143.542 E26.75037
G1 X96.699 Y143.105 E26.79948
G1 X95.857 Y142.598 E26.84852
G1 X95.058 Y142.024 E26.8976
G1 X94.308 Y141.388 E26.94666
G1 X93.612 Y140.692 E26.99577
G1 X92.975 Y139.942 E27.04486
G1 X92.402 Y139.143 E27.09391
G1 X91.895 Y138.3 E27.14299
G1 X91.458 Y137.419 E27.19205
G1 X91.094 Y136.505 E27.24114
G1 X90.806 Y135.565 E27.29018
G1 X90.595 Y134.604 E27.33927
G1 X90.463 Y133.629 E27.38836
G1 X90.413 Y132.818 E27.42889
G1 X90.404 Y132.485 E27.44551
G1 X90.4 Y132.158 E27.46183
G1 X90.401 Y93.01 E29.41493
G1 X90.41 Y92.345 E29.44811
G1 X90.463 Y91.363 E29.49717
G1 X90.596 Y90.388 E29.54627
G1 X90.808 Y89.428 E29.59532
G1 X91.097 Y88.487 E29.64443
G1 X91.461 Y87.574 E29.69346
G1 X91.899 Y86.693 E29.74255
G1 X92.406 Y85.85 E29.79163
G1 X92.98 Y85.051 E29.84071
G1 X93.618 Y84.302 E29.8898
G0 F6000 X93.573 Y85.27
G1 F1200 X94.207 Y84.551 E29.93762
G1 X94.899 Y83.887 E29.98547
G1 X95.644 Y83.283 E30.03332
G1 X96.436 Y82.743 E30.08114
G1 X97.271 Y82.271 E30.12899
G1 X98.142 Y81.87 E30.17683
G1 X99.044 Y81.544 E30.22468
G1 X99.969 Y81.293 E30.2725
G1 X100.913 Y81.12 E30.32038
G1 X102.187 Y81.014 E30.38416
G1 X102.508 Y81.005 E30.40018
G1 X102.83 Y81 E30.41625
G1 X121.793 Y81 E31.36232
G1 X122.656 Y81.011 E31.40537
G1 X123.613 Y81.065 E31.45319
G1 X124.563 Y81.198 E31.50105
G1 X125.498 Y81.41 E31.54888
G1 X126.412 Y81.699 E31.59671
G1 X127.299 Y82.064 E31.64456
G1 X128.153 Y82.5 E31.6924
G1 X128.967 Y83.007 E31.74024
G1 X129.737 Y83.58 E31.78813
G1 X130.455 Y84.214 E31.83592
G1 X131.119 Y84.907 E31.8838
G1 X131.722 Y85.652 E31.93162
G1 X132.262 Y86.445 E31.97948
G1 X132.733 Y87.28 E32.02731
G1 X133.133 Y88.152 E32.07517
G1 X133.459 Y89.053 E32.12298
G1 X133.709 Y89.979 E32.17083
G1 X133.881 Y90.923 E32.2187
G1 X133.986 Y92.187 E32.28198
G1 X133.995 Y92.507 E32.29795
G1 X134 Y92.83 E32.31407
G1 X133.999 Y131.906 E34.26358
G1 X133.99 Y132.633 E34.29985
G1 X133.938 Y133.591 E34.34771
G1 X133.807 Y134.541 E34.39556
G1 X133.597 Y135.476 E34.44337
G1 X133.309 Y136.391 E34.49122
G1 X132.947 Y137.279 E34.53907
G1 X132.512 Y138.134 E34.58693
G1 X132.007 Y138.949 E34.63476
G1 X131.435 Y139.719 E34.68261
G1 X130.802 Y140.439 E34.73044
G1 X130.111 Y141.104 E34.77829
G1 X129.367 Y141.709 E34.82613
G1 X128.575 Y142.25 E34.87398
G1 X127.741 Y142.723 E34.92182
G1 X126.87 Y143.125 E34.96968
G1 X125.969 Y143.452 E35.0175
G1 X125.044 Y143.704 E35.06533
G1 X124.1 Y143.878 E35.11322
G1 X122.813 Y143.986 E35.17765
G1 X122.492 Y143.995 E35.19367
G1 X122.17 Y144 E35.20974
G1 X103.059 Y143.999 E36.16319
G1 X102.361 Y143.99 E36.19802
G1 X101.403 Y143.938 E36.24588
G1 X100.453 Y143.806 E36.29373
G1 X99.518 Y143.595 E36.34155
G1 X98.603 Y143.307 E36.38941
G1 X97.715 Y142.944 E36.43727
G1 X96.861 Y142.509 E36.48509
G1 X96.046 Y142.003 E36.53295
G1 X95.276 Y141.432 E36.58077
G1 X94.556 Y140.798 E36.62863
G1 X93.892 Y140.107 E36.67644
G1 X93.287 Y139.362 E36.72432
G1 X92.747 Y138.57 E36.77215
G1 X92.275 Y137.736 E36.81996
G1 X91.873 Y136.865 E36.86782
G1 X91.546 Y135.963 E36.91568
G1 X91.295 Y135.038 E36.9635
G1 X91.121 Y134.095 E37.01134
G1 X91.013 Y132.802 E37.07607
G1 X91.004 Y132.469 E37.09269
G1 X91 Y132.158 E37.10821
G1 X91.001 Y93.018 E39.06091
G1 X91.01 Y92.353 E39.09409
G1 X91.063 Y91.396 E39.14191
G1 X91.196 Y90.446 E39.18977
G1 X91.407 Y89.511 E39.23759
G1 X91.695 Y88.596 E39.28545
G1 X92.059 Y87.709 E39.33328
G1 X92.495 Y86.855 E39.38112
G1 X93.001 Y86.04 E39.42898
G1 X93.573 Y85.27 E39.47683
G0 F6000 X94.165 Y85.496
G1 F1200 X94.796 Y84.807 E39.52345
G1 X95.483 Y84.176 E39.56998
G1 X96.222 Y83.605 E39.61658
G1 X97.007 Y83.1 E39.66314
G1 X97.832 Y82.663 E39.70972
G1 X98.692 Y82.299 E39.75631
G1 X99.58 Y82.01 E39.8029
G1 X100.489 Y81.798 E39.84947
G1 X101.413 Y81.664 E39.89605
G1 X102.204 Y81.613 E39.93559
G1 X102.525 Y81.604 E39.95162
G1 X102.83 Y81.6 E39.96683
G1 X121.793 Y81.6 E40.9129
G1 X122.647 Y81.611 E40.95551
G1 X123.579 Y81.664 E41.00208
G1 X124.503 Y81.797 E41.04866
G1 X125.413 Y82.009 E41.09527
G1 X126.301 Y82.297 E41.14185
G1 X127.16 Y82.661 E41.18839
G1 X127.986 Y83.097 E41.23499
G1 X128.772 Y83.601 E41.28157
G1 X129.511 Y84.171 E41.32813
G1 X130.199 Y84.803 E41.37474
G1 X130.83 Y85.491 E41.42132
G1 X131.4 Y86.23 E41.46788
G1 X131.905 Y87.015 E41.51445
G1 X132.34 Y87.841 E41.56102
G1 X132.704 Y88.701 E41.60761
G1 X132.992 Y89.589 E41.65419
G1 X133.204 Y90.498 E41.70075
G1 X133.337 Y91.422 E41.74733
G1 X133.387 Y92.204 E41.78642
G1 X133.396 Y92.524 E41.80239
G1 X133.4 Y92.83 E41.81766
G1 X133.399 Y131.899 E43.76682
G1 X133.39 Y132.626 E43.80309
G1 X133.339 Y133.558 E43.84966
G1 X133.208 Y134.482 E43.89622
G1 X132.998 Y135.392 E43.94281
G1 X132.711 Y136.281 E43.98942
G1 X132.349 Y137.141 E44.03597
G1 X131.915 Y137.968 E44.08257
G1 X131.412 Y138.754 E44.12912
G1 X130.843 Y139.495 E44.17573
G1 X130.213 Y140.184 E44.22231
G1 X129.527 Y140.816 E44.26885
G1 X128.788 Y141.388 E44.31547
G1 X128.004 Y141.894 E44.36202
G1 X127.179 Y142.331 E44.4086
G1 X126.32 Y142.696 E44.45516
G1 X125.433 Y142.987 E44.50174
G1 X124.524 Y143.2 E44.54832
G1 X123.6 Y143.334 E44.5949
G1 X122.796 Y143.387 E44.63509
G1 X122.475 Y143.396 E44.65112
G1 X122.17 Y143.4 E44.66633
G1 X103.066 Y143.399 E45.61944
G1 X102.368 Y143.39 E45.65426
G1 X101.436 Y143.338 E45.70083
G1 X100.512 Y143.207 E45.74739
G1 X99.602 Y142.996 E45.794
G1 X98.714 Y142.709 E45.84056
G1 X97.854 Y142.347 E45.88711
G1 X97.027 Y141.912 E45.93373
G1 X96.241 Y141.409 E45.98028
G1 X95.501 Y140.84 E46.02685
G1 X94.812 Y140.209 E46.07346
G1 X94.18 Y139.522 E46.12004
G1 X93.609 Y138.784 E46.16659
G1 X93.103 Y137.999 E46.21318
G1 X92.666 Y137.174 E46.25976
G1 X92.302 Y136.315 E46.30631
G1 X92.012 Y135.427 E46.35291
G1 X91.799 Y134.518 E46.39949
G1 X91.665 Y133.594 E46.44607
G1 X91.613 Y132.785 E46.48651
G1 X91.604 Y132.452 E46.50313
G1 X91.6 Y132.158 E46.5178
G1 X91.601 Y93.026 E48.47011
G1 X91.61 Y92.361 E48.50329
G1 X91.663 Y91.429 E48.54986
G1 X91.795 Y90.505 E48.59643
G1 X92.006 Y89.596 E48.64298
G1 X92.293 Y88.708 E48.68954
G1 X92.656 Y87.847 E48.73616
G1 X93.091 Y87.021 E48.78273
G1 X93.595 Y86.236 E48.82927
G1 X94.165 Y85.496 E48.87587
G0 F6000 X94.756 Y85.728
G1 F1200 X95.383 Y85.072 E48.92115
G1 X96.065 Y84.473 E48.96643
G1 X96.798 Y83.937 E49.01174
G1 X97.574 Y83.468 E49.05697
G1 X98.389 Y83.069 E49.10224
G1 X99.236 Y82.743 E49.14752
G1 X100.109 Y82.493 E49.19283
G1 X101 Y82.32 E49.23811
G1 X102.22 Y82.213 E49.29921
G1 X102.541 Y82.204 E49.31523
G1 X102.83 Y82.2 E49.32965
G1 X121.793 Y82.2 E50.27572
G1 X122.639 Y82.211 E50.31793
G1 X123.545 Y82.264 E50.36321
G1 X124.442 Y82.397 E50.40845
G1 X125.325 Y82.608 E50.45374
G1 X126.186 Y82.895 E50.49902
G1 X127.018 Y83.258 E50.54431
G1 X127.814 Y83.692 E50.58954
G1 X128.57 Y84.195 E50.63484
G1 X129.278 Y84.763 E50.68013
G1 X129.934 Y85.39 E50.7254
G1 X130.532 Y86.073 E50.77069
G1 X131.067 Y86.806 E50.81596
G1 X131.536 Y87.583 E50.86124
G1 X131.935 Y88.398 E50.90651
G1 X132.26 Y89.245 E50.95178
G1 X132.509 Y90.118 E50.99707
G1 X132.681 Y91.009 E51.04234
G1 X132.787 Y92.22 E51.10299
G1 X132.796 Y92.54 E51.11896
G1 X132.8 Y92.83 E51.13343
G1 X132.799 Y131.892 E53.08224
G1 X132.79 Y132.619 E53.11851
G1 X132.739 Y133.525 E53.16378
G1 X132.608 Y134.423 E53.20906
G1 X132.399 Y135.306 E53.25433
G1 X132.113 Y136.167 E53.29959
G1 X131.752 Y137 E53.34489
G1 X131.319 Y137.797 E53.39014
G1 X130.818 Y138.554 E53.43543
G1 X130.252 Y139.263 E53.48069
G1 X129.625 Y139.92 E53.526
G1 X128.944 Y140.519 E53.57125
G1 X128.212 Y141.056 E53.61654
G1 X127.436 Y141.526 E53.6618
G1 X126.621 Y141.927 E53.70712
G1 X125.775 Y142.253 E53.75235
G1 X124.903 Y142.505 E53.79763
G1 X124.012 Y142.678 E53.84292
G1 X122.78 Y142.787 E53.90462
G1 X122.459 Y142.796 E53.92064
G1 X122.17 Y142.8 E53.93506
G1 X103.074 Y142.799 E54.88776
G1 X102.376 Y142.79 E54.92259
G1 X101.47 Y142.738 E54.96787
G1 X100.572 Y142.607 E55.01314
G1 X99.689 Y142.398 E55.05841
