;FLAVOR:Marlin
;TIME:614
;Filament used: 0.57263m
;Layer height: 0.16
;MINX:10.426
;MINY:10.425
;MINZ:0.2
;MAXX:214.575
;MAXY:214.575
;MAXZ:0.4
;Generated with Creality Slicer 4.8.2-205
M140 S60
M105
M190 S60
M104 S205
M105
M109 S205
M82 ;absolute extrusion mode

G28 ;Home

G92 E0 ;Reset Extruder
G1 Z2.0 F3000 ;Move Z Axis up
G1 X10.1 Y20 Z0.28 F5000.0 ;Move to start position
G1 X10.1 Y200.0 Z0.28 F1500.0 E15 ;Draw the first line
G1 X10.4 Y200.0 Z0.28 F5000.0 ;Move to side a little
G1 X10.4 Y20 Z0.28 F1500.0 E30 ;Draw the second line
G92 E0 ;Reset Extruder
G1 Z2.0 F3000 ;Move Z Axis up

G92 E0
G92 E0
G1 F2700 E-5
;LAYER_COUNT:3
;LAYER:0
M107
G1 F300 Z0.4
G0 F6000 X20.373 Y14.309 Z0.4
;TYPE:SKIRT
G1 F300 Z0.2
G1 F2700 E0
G1 F1200 X20.853 Y13.842 E0.03341
G1 X21.586 Y13.186 E0.08249
G1 X22.369 Y12.591 E0.13155
G1 X23.198 Y12.061 E0.18064
G1 X24.067 Y11.601 E0.22969
G1 X24.971 Y11.212 E0.27879
G1 X25.903 Y10.899 E0.32784
G1 X26.858 Y10.662 E0.37693
G1 X27.829 Y10.504 E0.42601
G1 X28.809 Y10.425 E0.47506
G1 X29.793 Y10.425 E0.52416
G1 X30.773 Y10.506 E0.57322
G1 X31.744 Y10.666 E0.62231
G1 X32.698 Y10.905 E0.67138
G1 X33.63 Y11.22 E0.72046
G1 X34.533 Y11.61 E0.76953
G1 X35.402 Y12.071 E0.81861
G1 X36.23 Y12.602 E0.86768
G1 X37.012 Y13.199 E0.91677
G1 X37.615 Y13.733 E0.95695
G1 X37.826 Y13.933 E0.97146
G1 X38.058 Y14.159 E0.98762
G1 X50.276 Y26.377 E1.84966
G1 X52.132 Y28.181 E1.97879
G1 X53.944 Y29.845 E2.10153
G1 X55.834 Y31.485 E2.22637
G1 X57.76 Y33.063 E2.35059
G1 X59.723 Y34.581 E2.47439
G1 X61.759 Y36.064 E2.60006
G1 X63.775 Y37.448 E2.72206
G1 X65.874 Y38.804 E2.84673
G1 X67.987 Y40.085 E2.97
G1 X70.17 Y41.324 E3.09523
G1 X72.363 Y42.49 E3.21915
G1 X74.572 Y43.585 E3.34215
G1 X76.856 Y44.637 E3.46761
G1 X79.114 Y45.601 E3.5901
G1 X81.446 Y46.52 E3.71515
G1 X83.791 Y47.368 E3.83955
G1 X86.137 Y48.142 E3.9628
G1 X88.51 Y48.852 E4.08638
G1 X90.93 Y49.501 E4.21138
G1 X93.385 Y50.085 E4.33728
G1 X95.767 Y50.581 E4.45866
G1 X98.213 Y51.02 E4.58264
G1 X100.684 Y51.391 E4.70731
G1 X103.169 Y51.692 E4.83219
G1 X105.621 Y51.92 E4.95505
G1 X108.109 Y52.079 E5.07943
G1 X110.569 Y52.167 E5.20224
G1 X113.104 Y52.187 E5.32871
G1 X115.534 Y52.136 E5.44997
G1 X118.049 Y52.013 E5.57559
G1 X120.522 Y51.821 E5.69934
G1 X123.015 Y51.557 E5.82442
G1 X125.451 Y51.229 E5.94705
G1 X127.915 Y50.826 E6.07161
G1 X130.364 Y50.354 E6.19604
G1 X132.759 Y49.822 E6.31844
G1 X135.186 Y49.211 E6.4433
G1 X137.579 Y48.534 E6.56737
G1 X139.974 Y47.785 E6.69257
G1 X142.3 Y46.983 E6.81531
G1 X144.64 Y46.102 E6.94006
G1 X146.928 Y45.166 E7.06339
G1 X149.212 Y44.155 E7.188
G1 X151.458 Y43.084 E7.31214
G1 X153.679 Y41.946 E7.43665
G1 X155.835 Y40.764 E7.55932
G1 X157.995 Y39.499 E7.6842
G1 X160.094 Y38.189 E7.80764
G1 X162.175 Y36.806 E7.9323
G1 X164.198 Y35.379 E8.05581
G1 X166.179 Y33.894 E8.17933
G1 X168.15 Y32.329 E8.30489
G1 X170.037 Y30.74 E8.42796
G1 X171.888 Y29.09 E8.55167
G1 X173.734 Y27.351 E8.6782
G1 X174.723 Y26.377 E8.74745
G1 X186.792 Y14.309 E9.59895
G1 X187.272 Y13.842 E9.63236
G1 X188.005 Y13.186 E9.68144
G1 X188.788 Y12.591 E9.7305
G1 X189.617 Y12.061 E9.77959
G1 X190.486 Y11.601 E9.82864
G1 X191.39 Y11.212 E9.87774
G1 X192.322 Y10.899 E9.92679
G1 X193.277 Y10.662 E9.97588
G1 X194.248 Y10.504 E10.02496
G1 X195.228 Y10.425 E10.07402
G1 X196.212 Y10.425 E10.12311
G1 X197.192 Y10.506 E10.17217
G1 X198.163 Y10.666 E10.22126
G1 X199.117 Y10.905 E10.27033
G1 X200.049 Y11.22 E10.31941
G1 X200.952 Y11.61 E10.36848
G1 X201.821 Y12.071 E10.41756
G1 X202.649 Y12.602 E10.46663
G1 X203.431 Y13.199 E10.51572
G1 X203.989 Y13.69 E10.5528
G1 X204.183 Y13.872 E10.56607
G1 X204.459 Y14.14 E10.58526
G1 X210.657 Y20.339 E11.0226
G1 X211.157 Y20.853 E11.05838
G1 X211.814 Y21.585 E11.10745
G1 X212.409 Y22.369 E11.15655
G1 X212.938 Y23.198 E11.20561
G1 X213.399 Y24.067 E11.25469
G1 X213.787 Y24.971 E11.30377
G1 X214.1 Y25.903 E11.35282
G1 X214.337 Y26.858 E11.40191
G1 X214.495 Y27.829 E11.45099
G1 X214.574 Y28.809 E11.50004
G1 X214.574 Y29.793 E11.54913
G1 X214.493 Y30.773 E11.59819
G1 X214.333 Y31.744 E11.64729
G1 X214.094 Y32.698 E11.69636
G1 X213.779 Y33.63 E11.74544
G1 X213.389 Y34.533 E11.79451
G1 X212.927 Y35.402 E11.84361
G1 X212.396 Y36.23 E11.89269
G1 X211.8 Y37.012 E11.94174
G1 X211.311 Y37.566 E11.97861
G1 X211.101 Y37.79 E11.99392
G1 X210.83 Y38.07 E12.01336
G1 X198.607 Y50.293 E12.87576
G1 X196.837 Y52.115 E13.00249
G1 X195.139 Y53.963 E13.1277
G1 X193.523 Y55.827 E13.25078
G1 X191.927 Y57.772 E13.3763
G1 X190.406 Y59.74 E13.50039
G1 X188.957 Y61.73 E13.6232
G1 X187.543 Y63.791 E13.7479
G1 X186.196 Y65.875 E13.8717
G1 X184.91 Y67.998 E13.99553
G1 X183.677 Y70.166 E14.11996
G1 X182.511 Y72.36 E14.24392
G1 X181.402 Y74.597 E14.36849
G1 X180.384 Y76.809 E14.48997
G1 X179.386 Y79.146 E14.61675
G1 X178.472 Y81.46 E14.74088
G1 X177.628 Y83.801 E14.86503
G1 X176.864 Y86.117 E14.9867
G1 X176.14 Y88.537 E15.11272
G1 X175.502 Y90.917 E15.23565
G1 X174.926 Y93.335 E15.35966
G1 X174.406 Y95.826 E15.48662
G1 X173.981 Y98.205 E15.60718
G1 X173.611 Y100.675 E15.73179
G1 X173.307 Y103.173 E15.85733
G1 X173.08 Y105.621 E15.97999
G1 X172.921 Y108.108 E16.10432
G1 X172.833 Y110.569 E16.22718
G1 X172.813 Y113.104 E16.35365
G1 X172.864 Y115.536 E16.47501
G1 X172.987 Y118.048 E16.60049
G1 X173.179 Y120.522 E16.72428
G1 X173.442 Y123.011 E16.84915
G1 X173.772 Y125.461 E16.97249
G1 X174.172 Y127.903 E17.09594
G1 X174.649 Y130.379 E17.22174
G1 X175.182 Y132.776 E17.34425
G1 X175.782 Y135.162 E17.46699
G1 X176.472 Y137.603 E17.59355
G1 X177.214 Y139.973 E17.71745
G1 X178.016 Y142.297 E17.8401
G1 X178.894 Y144.631 E17.96451
G1 X179.835 Y146.929 E18.0884
G1 X180.85 Y149.222 E18.2135
G1 X181.91 Y151.446 E18.33642
G1 X183.054 Y153.678 E18.46155
G1 X184.236 Y155.834 E18.58422
G1 X185.49 Y157.976 E18.70805
G1 X186.819 Y160.106 E18.8333
G1 X188.199 Y162.183 E18.95771
G1 X189.608 Y164.179 E19.0796
G1 X191.119 Y166.196 E19.20534
G1 X192.671 Y168.15 E19.32983
G1 X194.257 Y170.034 E19.45269
G1 X195.916 Y171.896 E19.57711
G1 X197.631 Y173.715 E19.70184
G1 X198.626 Y174.727 E19.77264
G1 X210.689 Y186.791 E20.62379
G1 X211.157 Y187.272 E20.65727
G1 X211.814 Y188.004 E20.70634
G1 X212.409 Y188.788 E20.75545
G1 X212.939 Y189.617 E20.80453
G1 X213.399 Y190.486 E20.85359
G1 X213.787 Y191.39 E20.90267
G1 X214.101 Y192.322 E20.95173
G1 X214.338 Y193.277 E21.00082
G1 X214.496 Y194.248 E21.0499
G1 X214.575 Y195.228 E21.09896
G1 X214.575 Y196.212 E21.14805
G1 X214.494 Y197.192 E21.19711
G1 X214.334 Y198.163 E21.2462
G1 X214.095 Y199.117 E21.29527
G1 X213.78 Y200.049 E21.34435
G1 X213.391 Y200.952 E21.3934
G1 X212.929 Y201.82 E21.44246
G1 X212.398 Y202.649 E21.49158
G1 X211.802 Y203.431 E21.54063
G1 X211.294 Y204.005 E21.57887
G1 X211.084 Y204.228 E21.59415
G1 X210.831 Y204.489 E21.61229
G1 X204.639 Y210.679 E22.0491
G1 X204.15 Y211.155 E22.08314
G1 X203.418 Y211.812 E22.13222
G1 X202.635 Y212.408 E22.18131
G1 X201.806 Y212.937 E22.23037
G1 X200.937 Y213.398 E22.27945
G1 X200.033 Y213.786 E22.32853
G1 X199.101 Y214.1 E22.37759
G1 X198.146 Y214.337 E22.42668
G1 X197.175 Y214.496 E22.47577
G1 X196.195 Y214.575 E22.52482
G1 X195.211 Y214.575 E22.57392
G1 X194.231 Y214.494 E22.62297
G1 X193.26 Y214.334 E22.67207
G1 X192.306 Y214.096 E22.72113
G1 X191.374 Y213.781 E22.77021
G1 X190.471 Y213.392 E22.81926
G1 X189.602 Y212.93 E22.86836
G1 X188.774 Y212.4 E22.91741
G1 X187.991 Y211.803 E22.96653
G1 X187.38 Y211.261 E23.00728
G1 X187.144 Y211.037 E23.02351
G1 X186.918 Y210.817 E23.03925
G1 X174.707 Y198.606 E23.9008
G1 X172.885 Y196.836 E24.02753
G1 X171.038 Y195.139 E24.15267
G1 X169.144 Y193.497 E24.27772
G1 X167.244 Y191.939 E24.40031
G1 X165.294 Y190.432 E24.52326
G1 X163.236 Y188.933 E24.65029
G1 X161.225 Y187.552 E24.77199
G1 X159.126 Y186.196 E24.89666
G1 X157.013 Y184.915 E25.01994
G1 X154.83 Y183.676 E25.14517
G1 X152.637 Y182.51 E25.26908
G1 X150.428 Y181.415 E25.39209
G1 X148.144 Y180.363 E25.51754
G1 X145.886 Y179.399 E25.64003
G1 X143.554 Y178.48 E25.76509
G1 X141.209 Y177.632 E25.88949
G1 X138.863 Y176.858 E26.01274
G1 X136.49 Y176.148 E26.13632
G1 X134.07 Y175.499 E26.26132
G1 X131.615 Y174.915 E26.38721
G1 X129.233 Y174.419 E26.5086
G1 X126.787 Y173.98 E26.63258
G1 X124.316 Y173.609 E26.75724
G1 X121.831 Y173.308 E26.88213
G1 X119.379 Y173.08 E27.00499
G1 X116.891 Y172.921 E27.12937
G1 X114.431 Y172.833 E27.25217
G1 X111.896 Y172.813 E27.37865
G1 X109.466 Y172.864 E27.49991
G1 X106.951 Y172.987 E27.62553
G1 X104.478 Y173.179 E27.74928
G1 X101.985 Y173.443 E27.87435
G1 X99.549 Y173.771 E27.99698
G1 X97.085 Y174.174 E28.12155
G1 X94.636 Y174.646 E28.24598
G1 X92.241 Y175.178 E28.36838
G1 X89.814 Y175.789 E28.49324
G1 X87.421 Y176.466 E28.61731
G1 X85.026 Y177.215 E28.7425
G1 X82.7 Y178.017 E28.86525
G1 X80.36 Y178.898 E28.99
G1 X78.072 Y179.834 E29.11333
G1 X75.788 Y180.845 E29.23794
G1 X73.542 Y181.916 E29.36208
G1 X71.321 Y183.054 E29.48659
G1 X69.165 Y184.236 E29.60925
G1 X67.005 Y185.501 E29.73414
G1 X64.906 Y186.811 E29.85758
G1 X62.825 Y188.194 E29.98224
G1 X60.802 Y189.621 E30.10575
G1 X58.821 Y191.106 E30.22927
G1 X56.85 Y192.671 E30.35483
G1 X54.976 Y194.248 E30.47702
G1 X53.112 Y195.91 E30.60161
G1 X51.266 Y197.649 E30.72814
G1 X50.277 Y198.623 E30.79739
G1 X38.223 Y210.675 E31.6478
G1 X37.724 Y211.16 E31.68251
G1 X36.992 Y211.816 E31.73155
G1 X36.208 Y212.411 E31.78065
G1 X35.379 Y212.94 E31.82972
G1 X34.509 Y213.4 E31.87882
G1 X33.605 Y213.788 E31.92789
G1 X32.673 Y214.101 E31.97694
G1 X31.718 Y214.337 E32.02602
G1 X30.747 Y214.495 E32.0751
G1 X29.767 Y214.574 E32.12415
G1 X28.783 Y214.572 E32.17325
G1 X27.803 Y214.491 E32.22231
G1 X26.832 Y214.331 E32.2714
G1 X25.878 Y214.092 E32.32047
G1 X24.946 Y213.776 E32.36957
G1 X24.043 Y213.386 E32.41864
G1 X23.175 Y212.924 E32.4677
G1 X22.347 Y212.392 E32.5168
G1 X21.565 Y211.796 E32.56585
G1 X21.017 Y211.312 E32.60233
G1 X20.778 Y211.088 E32.61867
G1 X20.497 Y210.816 E32.63818
G1 X14.363 Y204.682 E33.07097
G1 X13.853 Y204.159 E33.10741
G1 X13.195 Y203.427 E33.15652
G1 X12.6 Y202.644 E33.20558
G1 X12.069 Y201.816 E33.25465
G1 X11.608 Y200.947 E33.30373
G1 X11.218 Y200.044 E33.3528
G1 X10.904 Y199.112 E33.40187
G1 X10.666 Y198.158 E33.45092
G1 X10.506 Y197.187 E33.50002
G1 X10.426 Y196.206 E33.54913
G1 X10.426 Y195.223 E33.59817
G1 X10.505 Y194.242 E33.64727
G1 X10.664 Y193.272 E33.69631
G1 X10.902 Y192.317 E33.74541
G1 X11.216 Y191.385 E33.79448
G1 X11.605 Y190.481 E33.84357
G1 X12.065 Y189.612 E33.89263
G1 X12.595 Y188.783 E33.94172
G1 X13.191 Y188.001 E33.99077
G1 X13.697 Y187.426 E34.02898
G1 X13.93 Y187.178 E34.04596
G1 X14.193 Y186.907 E34.0648
G1 X26.393 Y174.707 E34.92558
G1 X28.163 Y172.885 E35.05231
G1 X29.861 Y171.037 E35.17751
G1 X31.477 Y169.173 E35.30059
G1 X33.073 Y167.228 E35.42612
G1 X34.594 Y165.26 E35.55021
G1 X36.043 Y163.27 E35.67302
G1 X37.457 Y161.209 E35.79771
G1 X38.804 Y159.125 E35.92151
G1 X40.09 Y157.002 E36.04535
G1 X41.323 Y154.834 E36.16978
G1 X42.489 Y152.64 E36.29373
G1 X43.598 Y150.403 E36.4183
G1 X44.616 Y148.191 E36.53978
G1 X45.614 Y145.854 E36.66656
G1 X46.528 Y143.54 E36.79069
G1 X47.372 Y141.199 E36.91484
G1 X48.136 Y138.883 E37.03651
G1 X48.86 Y136.463 E37.16253
G1 X49.498 Y134.083 E37.28546
G1 X50.074 Y131.665 E37.40947
G1 X50.594 Y129.174 E37.53643
G1 X51.019 Y126.795 E37.657
G1 X51.389 Y124.325 E37.7816
G1 X51.693 Y121.827 E37.90715
G1 X51.92 Y119.379 E38.0298
G1 X52.079 Y116.892 E38.15413
G1 X52.167 Y114.431 E38.27699
G1 X52.187 Y111.896 E38.40347
G1 X52.136 Y109.464 E38.52482
G1 X52.013 Y106.952 E38.6503
G1 X51.821 Y104.477 E38.77415
G1 X51.557 Y101.984 E38.89922
G1 X51.229 Y99.548 E39.02185
G1 X50.826 Y97.084 E39.14641
G1 X50.354 Y94.634 E39.27089
G1 X49.816 Y92.217 E39.39443
G1 X49.218 Y89.838 E39.51681
G1 X48.528 Y87.397 E39.64336
G1 X47.786 Y85.027 E39.76726
G1 X46.987 Y82.711 E39.88949
G1 X46.107 Y80.373 E40.01412
G1 X45.16 Y78.059 E40.13886
G1 X44.15 Y75.778 E40.26332
G1 X43.09 Y73.554 E40.38623
G1 X41.946 Y71.322 E40.51136
G1 X40.759 Y69.156 E40.63459
G1 X39.506 Y67.018 E40.75822
G1 X38.186 Y64.901 E40.88269
G1 X36.81 Y62.831 E41.00669
G1 X35.387 Y60.814 E41.12985
G1 X33.879 Y58.802 E41.25529
G1 X32.329 Y56.85 E41.37964
G1 X30.742 Y54.965 E41.50258
G1 X29.084 Y53.104 E41.62693
G1 X27.341 Y51.256 E41.75366
G1 X26.373 Y50.272 E41.82253
G1 X14.323 Y38.221 E42.67275
G1 X13.846 Y37.731 E42.70687
G1 X13.189 Y36.999 E42.75594
G1 X12.594 Y36.216 E42.80501
G1 X12.064 Y35.387 E42.8541
G1 X11.603 Y34.518 E42.90317
G1 X11.215 Y33.614 E42.95225
G1 X10.901 Y32.682 E43.00132
G1 X10.664 Y31.727 E43.05041
G1 X10.505 Y30.757 E43.09945
G1 X10.426 Y29.776 E43.14855
G1 X10.426 Y28.792 E43.19764
G1 X10.507 Y27.812 E43.2467
G1 X10.667 Y26.841 E43.2958
G1 X10.905 Y25.887 E43.34485
G1 X11.22 Y24.955 E43.39393
G1 X11.609 Y24.052 E43.44298
G1 X12.071 Y23.183 E43.49209
G1 X12.601 Y22.355 E43.54113
G1 X13.197 Y21.573 E43.59019
G1 X13.711 Y20.991 E43.62892
G1 X13.941 Y20.747 E43.64565
G1 X14.19 Y20.491 E43.66347
G1 X20.373 Y14.309 E44.09968
G0 F6000 X20.792 Y14.739
G1 F1200 X21.272 Y14.272 E44.13309
G1 X21.986 Y13.633 E44.18089
G1 X22.752 Y13.055 E44.22877
G1 X23.563 Y12.543 E44.27662
G1 X24.413 Y12.101 E44.32442
G1 X25.298 Y11.731 E44.37227
G1 X26.21 Y11.435 E44.42011
G1 X27.144 Y11.217 E44.46796
G1 X28.093 Y11.078 E44.51581
G1 X29.05 Y11.018 E44.56365
G1 X30.009 Y11.037 E44.6115
G1 X30.962 Y11.137 E44.65931
G1 X31.905 Y11.316 E44.7072
G1 X32.829 Y11.573 E44.75504
G1 X33.728 Y11.905 E44.80286
G1 X34.596 Y12.312 E44.85069
G1 X35.428 Y12.789 E44.89853
G1 X36.217 Y13.335 E44.9464
G1 X37.202 Y14.169 E45.01079
G1 X37.413 Y14.369 E45.0253
G1 X37.634 Y14.583 E45.04064
G1 X49.875 Y26.824 E45.90431
G1 X51.715 Y28.612 E46.03231
G1 X53.57 Y30.316 E46.15798
G1 X55.428 Y31.927 E46.28067
G1 X57.4 Y33.544 E46.4079
G1 X59.352 Y35.053 E46.53099
G1 X61.396 Y36.542 E46.65715
G1 X63.476 Y37.969 E46.783
G1 X65.546 Y39.306 E46.90594
G1 X67.689 Y40.605 E47.03096
G1 X69.889 Y41.855 E47.1572
G1 X72.069 Y43.014 E47.28038
G1 X74.323 Y44.131 E47.40588
G1 X76.623 Y45.19 E47.53221
G1 X78.868 Y46.149 E47.654
G1 X81.263 Y47.093 E47.78244
G1 X83.578 Y47.93 E47.90525
G1 X85.956 Y48.715 E48.03018
G1 X88.361 Y49.434 E48.15542
G1 X90.773 Y50.081 E48.28001
G1 X93.228 Y50.664 E48.40589
G1 X95.65 Y51.169 E48.52933
G1 X98.156 Y51.619 E48.65635
G1 X100.592 Y51.984 E48.77924
G1 X103.077 Y52.286 E48.90413
G1 X105.598 Y52.52 E49.03044
G1 X108.049 Y52.677 E49.15298
G1 X110.579 Y52.767 E49.27928
G1 X113.111 Y52.787 E49.4056
G1 X115.578 Y52.735 E49.52871
G1 X118.09 Y52.613 E49.65418
G1 X120.558 Y52.421 E49.77768
G1 X123.088 Y52.153 E49.90461
G1 X125.523 Y51.825 E50.02719
G1 X128.014 Y51.417 E50.15312
G1 X130.504 Y50.938 E50.27963
G1 X132.898 Y50.405 E50.40199
G1 X135.317 Y49.797 E50.52643
G1 X137.776 Y49.102 E50.65391
G1 X140.138 Y48.363 E50.77739
G1 X142.528 Y47.539 E50.90351
G1 X144.85 Y46.665 E51.02729
G1 X147.175 Y45.713 E51.15263
G1 X149.459 Y44.702 E51.27725
G1 X151.707 Y43.63 E51.4015
G1 X153.959 Y42.477 E51.52772
G1 X156.144 Y41.279 E51.65204
G1 X158.307 Y40.012 E51.7771
G1 X160.419 Y38.693 E51.90133
G1 X162.505 Y37.308 E52.02625
G1 X164.555 Y35.861 E52.15144
G1 X166.546 Y34.368 E52.2756
G1 X168.539 Y32.786 E52.40255
G1 X170.418 Y31.205 E52.52506
G1 X172.312 Y29.516 E52.65167
G1 X174.142 Y27.791 E52.77713
G1 X175.08 Y26.868 E52.84279
G1 X187.211 Y14.739 E53.69862
G1 X187.691 Y14.272 E53.73204
G1 X188.405 Y13.633 E53.77984
G1 X189.171 Y13.055 E53.82771
G1 X189.982 Y12.543 E53.87556
G1 X190.832 Y12.101 E53.92336
G1 X191.717 Y11.731 E53.97122
G1 X192.629 Y11.435 E54.01905
G1 X193.563 Y11.217 E54.0669
G1 X194.512 Y11.078 E54.11475
G1 X195.469 Y11.018 E54.16259
G1 X196.428 Y11.037 E54.21045
G1 X197.381 Y11.137 E54.25825
G1 X198.324 Y11.316 E54.30614
G1 X199.248 Y11.573 E54.35399
G1 X200.147 Y11.905 E54.4018
G1 X201.015 Y12.312 E54.44963
G1 X201.847 Y12.789 E54.49748
G1 X202.636 Y13.335 E54.54535
G1 X203.578 Y14.128 E54.60678
G1 X203.772 Y14.31 E54.62005
G1 X204.035 Y14.565 E54.63832
G1 X210.227 Y20.757 E55.0752
G1 X210.727 Y21.271 E55.11098
G1 X211.367 Y21.986 E55.15885
G1 X211.944 Y22.751 E55.20666
G1 X212.456 Y23.562 E55.25451
